; generated by PrusaSlicer 2.7.4+win64 on 2024-10-05 at 15:25:46 UTC

; 

; external perimeters extrusion width = 0.42mm
; perimeters extrusion width = 0.44mm
; infill extrusion width = 0.44mm
; solid infill extrusion width = 0.44mm
; top infill extrusion width = 0.40mm
; support material extrusion width = 0.36mm
; first layer extrusion width = 0.42mm

M201 X500 Y500 Z100 E5000 ; sets maximum accelerations, mm/sec^2
M203 X500 Y500 Z10 E60 ; sets maximum feedrates, mm / sec
M204 S500 T1000 ; sets acceleration (S) and retract acceleration (R), mm/sec^2
M205 X8.00 Y8.00 Z0.40 E5.00 ; sets the jerk limits, mm/sec
M205 S0 T0 ; sets the minimum extruding and travel feed rate, mm/sec

; printing object rear_motor_bracket.stl id:0 copy 0
; stop printing object rear_motor_bracket.stl id:0 copy 0

;TYPE:Custom
G90 ; use absolute coordinates
M83 ; extruder relative mode
M104 S150 ; set temporary nozzle temp to prevent oozing during homing and auto bed leveling
M140 S60 ; set final bed temp
G4 S30 ; allow partial nozzle warmup
G28 ; home all axis
G29 ; auto bed levelling
G1 Z50 F240
G1 X2.0 Y10 F3000
M104 S210 ; set final nozzle temp
M190 S60 ; wait for bed temp to stabilize
M109 S210 ; wait for nozzle temp to stabilize
G1 Z0.28 F240
G92 E0
G1 X2.0 Y140 E10 F1500 ; prime the nozzle
G1 X2.3 Y140 F5000
G92 E0
G1 X2.3 Y10 E10 F1200 ; prime the nozzle
G92 E0
G21 ; set units to millimeters
G90 ; use absolute coordinates
M83 ; use relative distances for extrusion
; Filament gcode
M107
;LAYER_CHANGE
;Z:0.2
;HEIGHT:0.2
G1 E-5 F3600
G1 Z.2 F9000
G1 X73.641 Y103.357
G1 Z.2
G1 E5 F2400
M204 S500
;TYPE:Skirt/Brim
;WIDTH:0.42
G1 F1200
G1 X75.039 Y102.516 E.05115
G1 X76.029 Y102.368 E.03139
G1 X154.971 Y102.368 E2.47517
G1 X156.554 Y102.762 E.05115
G1 X157.359 Y103.357 E.03139
G1 X160.288 Y106.286 E.12988
G1 X161.129 Y107.684 E.05115
G1 X161.277 Y108.674 E.03139
G1 X161.277 Y115.616 E.21766
G1 X161.176 Y116.435 E.02587
G1 X155.676 Y138.435 E.71102
G1 X154.788 Y140.004 E.05653
G1 X151.859 Y142.933 E.12988
G1 X150.461 Y143.774 E.05115
G1 X149.471 Y143.922 E.03139
G1 X81.529 Y143.922 E2.13027
G1 X79.946 Y143.528 E.05115
G1 X79.141 Y142.933 E.03139
G1 X76.212 Y140.004 E.12988
G1 X75.324 Y138.435 E.05653
G1 X69.824 Y116.435 E.71102
G1 X69.723 Y115.616 E.02587
G1 X69.723 Y108.674 E.21766
G1 X70.117 Y107.091 E.05115
G1 X70.712 Y106.286 E.03139
G1 X73.599 Y103.399 E.12801
G1 E-3.5 F3600
;WIPE_START
G1 F7200
G1 X73.641 Y103.357 E-.02821
G1 X75.039 Y102.516 E-.77495
G1 X76.029 Y102.368 E-.47548
G1 X76.495 Y102.368 E-.22136
;WIPE_END
G1 X75.633 Y106.679 F9000
G1 E5 F2400
G1 F1200
G1 X77.485 Y106.042 E.06141
G1 X86.894 Y106.035 E.29501
G1 X88.063 Y106.297 E.03756
G1 X89.124 Y106.864 E.03772
G1 X89.981 Y107.654 E.03655
G1 X90.61 Y108.545 E.0342
G1 X91.113 Y110.223 E.05493
G1 X91.113 Y128.032 E.55839
G1 X100.887 Y128.032 E.30646
G1 X100.887 Y110.218 E.55855
G1 X101.419 Y108.485 E.05684
G1 X101.961 Y107.718 E.02945
G1 X102.641 Y107.038 E.03015
G1 X103.916 Y106.309 E.04605
G1 X105.172 Y106.031 E.04033
G1 X126 Y106.041 E.65305
G1 X127.544 Y106.509 E.05059
G1 X128.448 Y107.127 E.03433
G1 X129.134 Y107.833 E.03086
G1 X129.68 Y108.689 E.03183
G1 X130.083 Y110.013 E.04339
G1 X130.113 Y128.032 E.56497
G1 X139.887 Y128.032 E.30646
G1 X139.887 Y110.225 E.55833
G1 X140.35 Y108.623 E.05229
G1 X140.85 Y107.851 E.02884
G1 X141.77 Y106.946 E.04046
G1 X142.594 Y106.446 E.03022
G1 X144.067 Y106.032 E.04797
G1 X153.351 Y106.032 E.29109
G1 X154.465 Y106.263 E.03567
G1 X155.543 Y106.806 E.03785
G1 X156.748 Y107.978 E.05271
G1 X157.267 Y108.878 E.03257
G1 X157.578 Y109.993 E.03629
G1 X157.615 Y114.044 E.12702
G1 X157.179 Y115.604 E.05079
G1 X156.582 Y116.52 E.03428
G1 X155.741 Y117.338 E.03678
G1 X154.866 Y117.867 E.03206
G1 X153.795 Y118.2 E.03517
G1 X152.113 Y118.224 E.05274
G1 X152.113 Y136.066 E.55942
G1 X151.619 Y137.729 E.05439
G1 X151.039 Y138.572 E.03208
G1 X150.196 Y139.373 E.03646
G1 X149.063 Y139.991 E.04047
G1 X147.842 Y140.258 E.03919
G1 X122.064 Y140.258 E.80825
G1 X120.581 Y139.838 E.04833
G1 X119.753 Y139.332 E.03043
G1 X118.596 Y138.098 E.05304
G1 X118.185 Y137.278 E.02876
G1 X117.887 Y136.055 E.03947
G1 X117.887 Y118.258 E.55801
G1 X113.113 Y118.258 E.14969
G1 X113.113 Y136.081 E.55883
G1 X112.694 Y137.562 E.04826
G1 X112.201 Y138.372 E.02973
G1 X111.391 Y139.214 E.03663
G1 X110.57 Y139.772 E.03112
G1 X108.921 Y140.258 E.0539
G1 X83.09 Y140.258 E.80991
G1 X81.836 Y139.951 E.04048
G1 X80.862 Y139.412 E.0349
G1 X79.97 Y138.579 E.03827
G1 X79.472 Y137.903 E.02633
G1 X78.887 Y136.085 E.05988
G1 X78.887 Y118.252 E.55914
G1 X77.371 Y118.229 E.04754
G1 X76.202 Y117.896 E.03811
G1 X75.227 Y117.31 E.03567
G1 X74.438 Y116.542 E.03452
G1 X73.925 Y115.81 E.02803
G1 X73.396 Y114.147 E.05472
G1 X73.425 Y109.952 E.13153
G1 X73.708 Y108.941 E.03292
G1 X74.287 Y107.934 E.03642
G1 X75.026 Y107.152 E.03374
G1 X75.586 Y106.716 E.02225
G1 X75.586 Y106.716 F9000
G1 X75.816 Y107.014
G1 F1200
G1 X75.839 Y106.996 E.00092
G1 X77.517 Y106.419 E.05564
G1 X86.872 Y106.412 E.29332
G1 X87.954 Y106.659 E.0348
G1 X88.886 Y107.157 E.03313
G1 X89.71 Y107.917 E.03515
G1 X90.284 Y108.736 E.03136
G1 X90.736 Y110.251 E.04957
G1 X90.736 Y128.409 E.56933
G1 X101.264 Y128.409 E.3301
G1 X101.264 Y110.246 E.56949
G1 X101.745 Y108.677 E.05145
G1 X102.239 Y107.973 E.02697
G1 X102.89 Y107.323 E.02884
G1 X104.076 Y106.651 E.04274
G1 X105.192 Y106.409 E.0358
G1 X125.971 Y106.418 E.65151
G1 X127.404 Y106.861 E.04703
G1 X128.191 Y107.402 E.02994
G1 X128.85 Y108.082 E.02969
G1 X129.347 Y108.868 E.02916
G1 X129.714 Y110.095 E.04016
G1 X129.736 Y128.409 E.57422
G1 X140.264 Y128.409 E.3301
G1 X140.264 Y110.252 E.5693
G1 X140.682 Y108.803 E.04728
G1 X141.131 Y108.103 E.02608
G1 X141.987 Y107.255 E.03778
G1 X142.724 Y106.801 E.02714
G1 X144.093 Y106.409 E.04465
G1 X153.332 Y106.409 E.28968
G1 X154.362 Y106.626 E.033
G1 X155.346 Y107.128 E.03464
G1 X156.435 Y108.19 E.04769
G1 X156.911 Y109.006 E.02962
G1 X157.201 Y110.022 E.03313
G1 X157.238 Y114.02 E.12536
G1 X156.824 Y115.472 E.04734
G1 X156.305 Y116.264 E.02969
G1 X155.494 Y117.052 E.03545
G1 X154.692 Y117.532 E.02931
G1 X153.762 Y117.823 E.03055
G1 X151.736 Y117.853 E.06353
G1 X151.736 Y136.039 E.57021
G1 X151.291 Y137.541 E.04912
G1 X150.763 Y138.315 E.02938
G1 X149.992 Y139.056 E.03353
G1 X148.954 Y139.629 E.03718
G1 X147.821 Y139.881 E.03639
G1 X122.091 Y139.881 E.80675
G1 X120.712 Y139.484 E.04499
G1 X119.973 Y139.025 E.02728
G1 X118.92 Y137.903 E.04825
G1 X118.545 Y137.165 E.02596
G1 X118.264 Y136.031 E.03663
G1 X118.264 Y117.881 E.56908
G1 X112.736 Y117.881 E.17333
G1 X112.736 Y136.054 E.5698
G1 X112.339 Y137.432 E.04496
G1 X111.892 Y138.155 E.02665
G1 X111.134 Y138.937 E.03415
G1 X110.384 Y139.443 E.02837
G1 X108.894 Y139.881 E.04869
G1 X83.114 Y139.881 E.80831
G1 X81.952 Y139.592 E.03754
G1 X81.068 Y139.095 E.0318
G1 X80.242 Y138.317 E.03558
G1 X79.794 Y137.705 E.02378
G1 X79.264 Y136.055 E.05434
G1 X79.264 Y117.878 E.56993
G1 X77.45 Y117.859 E.05688
G1 X76.33 Y117.541 E.0365
G1 X75.443 Y117 E.03258
G1 X74.716 Y116.286 E.03195
G1 X74.25 Y115.618 E.02554
G1 X73.774 Y114.12 E.04928
G1 X73.802 Y109.981 E.12978
G1 X74.064 Y109.067 E.02981
G1 X74.576 Y108.177 E.03219
G1 X75.29 Y107.421 E.0326
G1 X75.769 Y107.051 E.01898
G1 X75.769 Y107.051 F9000
G1 X75.999 Y107.349
G1 F1200
G1 X76.044 Y107.314 E.00179
G1 X77.548 Y106.796 E.04988
G1 X86.852 Y106.789 E.29172
G1 X87.801 Y107.005 E.03052
G1 X88.648 Y107.452 E.03003
G1 X89.439 Y108.18 E.03371
G1 X89.957 Y108.926 E.02848
G1 X90.359 Y110.278 E.04423
G1 X90.359 Y128.786 E.58031
G1 X101.641 Y128.786 E.35374
G1 X101.641 Y110.274 E.58043
G1 X102.071 Y108.868 E.0461
G1 X102.518 Y108.228 E.02448
G1 X103.138 Y107.608 E.02749
G1 X104.235 Y106.994 E.03942
G1 X105.211 Y106.786 E.03129
G1 X125.941 Y106.795 E.64997
G1 X127.263 Y107.211 E.04345
G1 X127.933 Y107.679 E.02562
G1 X128.542 Y108.3 E.02727
G1 X129.014 Y109.047 E.02771
G1 X129.345 Y110.175 E.03686
G1 X129.359 Y128.786 E.58354
G1 X140.641 Y128.786 E.35374
G1 X140.641 Y110.278 E.58031
G1 X141.015 Y108.982 E.04229
G1 X141.413 Y108.355 E.02329
G1 X142.206 Y107.562 E.03516
G1 X142.855 Y107.155 E.02402
G1 X144.121 Y106.786 E.04135
G1 X153.311 Y106.786 E.28815
G1 X154.257 Y106.989 E.03034
G1 X155.147 Y107.45 E.03143
G1 X156.123 Y108.404 E.04279
G1 X156.556 Y109.135 E.02664
G1 X156.824 Y110.052 E.02995
G1 X156.861 Y113.996 E.12367
G1 X156.493 Y115.291 E.04221
G1 X156.026 Y116.008 E.02683
G1 X155.247 Y116.766 E.03408
G1 X154.519 Y117.197 E.02653
G1 X153.729 Y117.447 E.02598
G1 X151.359 Y117.481 E.07432
G1 X151.359 Y136.012 E.58103
G1 X150.962 Y137.354 E.04388
G1 X150.486 Y138.058 E.02665
G1 X149.785 Y138.739 E.03064
G1 X148.843 Y139.267 E.03386
G1 X147.799 Y139.504 E.03357
G1 X122.119 Y139.504 E.80518
G1 X120.845 Y139.13 E.04163
G1 X120.195 Y138.719 E.02411
G1 X119.243 Y137.707 E.04356
G1 X118.905 Y137.051 E.02314
G1 X118.641 Y136.007 E.03376
G1 X118.641 Y117.504 E.58015
G1 X112.359 Y117.504 E.19697
G1 X112.359 Y136.026 E.58074
G1 X111.985 Y137.299 E.0416
G1 X111.584 Y137.937 E.02363
G1 X110.879 Y138.659 E.03164
G1 X110.199 Y139.113 E.02564
G1 X108.867 Y139.504 E.04353
G1 X83.138 Y139.504 E.80671
G1 X82.071 Y139.233 E.03452
G1 X81.275 Y138.78 E.02872
G1 X80.515 Y138.056 E.03291
G1 X80.117 Y137.508 E.02124
G1 X79.641 Y136.026 E.04881
G1 X79.641 Y117.502 E.58081
G1 X77.528 Y117.489 E.06625
G1 X76.459 Y117.186 E.03484
G1 X75.66 Y116.691 E.02947
G1 X74.994 Y116.031 E.0294
G1 X74.576 Y115.427 E.02303
G1 X74.151 Y114.093 E.0439
G1 X74.179 Y110.01 E.12802
G1 X74.419 Y109.196 E.02661
G1 X74.865 Y108.42 E.02806
G1 X75.554 Y107.691 E.03145
G1 X75.951 Y107.386 E.0157
G1 X76.179 Y107.685 F9000
G1 F1200
G1 X76.249 Y107.632 E.00275
G1 X77.58 Y107.173 E.04414
G1 X86.831 Y107.166 E.29006
G1 X87.65 Y107.351 E.02633
G1 X88.412 Y107.746 E.02691
G1 X89.168 Y108.443 E.03224
G1 X89.629 Y109.115 E.02555
G1 X89.982 Y110.305 E.03892
G1 X89.982 Y129.163 E.59128
G1 X102.018 Y129.163 E.37738
G1 X102.018 Y110.302 E.59137
G1 X102.398 Y109.058 E.04078
G1 X102.797 Y108.482 E.02197
G1 X103.385 Y107.894 E.02607
G1 X104.391 Y107.338 E.03604
G1 X105.23 Y107.163 E.02687
G1 X125.911 Y107.172 E.64844
G1 X127.119 Y107.561 E.03979
G1 X127.676 Y107.954 E.02137
G1 X128.258 Y108.549 E.0261
G1 X128.68 Y109.223 E.02493
G1 X128.975 Y110.253 E.03359
G1 X128.982 Y129.163 E.59291
G1 X141.018 Y129.163 E.37738
G1 X141.018 Y110.305 E.59128
G1 X141.348 Y109.159 E.03739
G1 X141.696 Y108.605 E.02051
G1 X142.428 Y107.868 E.03257
G1 X142.99 Y107.508 E.02093
G1 X144.148 Y107.163 E.03789
G1 X153.29 Y107.163 E.28664
G1 X154.15 Y107.352 E.02761
G1 X154.947 Y107.771 E.02823
G1 X155.813 Y108.619 E.038
G1 X156.202 Y109.268 E.02372
G1 X156.448 Y110.083 E.02669
G1 X156.483 Y113.973 E.12197
G1 X156.16 Y115.111 E.03709
G1 X155.748 Y115.753 E.02392
G1 X155.001 Y116.48 E.03268
G1 X154.381 Y116.845 E.02256
G1 X153.694 Y117.07 E.02267
G1 X150.982 Y117.109 E.08504
G1 X150.982 Y135.985 E.59184
G1 X150.633 Y137.169 E.0387
G1 X150.207 Y137.804 E.02398
G1 X149.578 Y138.423 E.02767
G1 X148.683 Y138.925 E.03217
G1 X147.779 Y139.127 E.02904
G1 X122.147 Y139.127 E.80367
G1 X120.98 Y138.777 E.0382
G1 X120.42 Y138.415 E.02091
G1 X119.564 Y137.509 E.03908
G1 X119.265 Y136.934 E.02032
G1 X119.018 Y135.983 E.03081
G1 X119.018 Y117.127 E.59122
G1 X111.982 Y117.127 E.22061
G1 X111.982 Y135.998 E.59169
G1 X111.632 Y137.164 E.03817
G1 X111.278 Y137.716 E.02056
G1 X110.624 Y138.38 E.02922
G1 X110.015 Y138.783 E.0229
G1 X108.84 Y139.127 E.03839
G1 X83.162 Y139.127 E.80512
G1 X82.192 Y138.875 E.03142
G1 X81.484 Y138.465 E.02565
G1 X80.789 Y137.797 E.03022
G1 X80.441 Y137.313 E.01869
G1 X80.018 Y135.997 E.04334
G1 X80.018 Y117.125 E.59172
G1 X77.606 Y117.119 E.07563
G1 X76.589 Y116.83 E.03315
G1 X75.88 Y116.384 E.02626
G1 X75.273 Y115.777 E.02692
G1 X74.903 Y115.237 E.02052
G1 X74.528 Y114.064 E.03861
G1 X74.548 Y110.091 E.12457
G1 X74.774 Y109.325 E.02504
G1 X75.179 Y108.63 E.02522
G1 X75.816 Y107.963 E.02892
G1 X76.132 Y107.722 E.01246
G1 X76.132 Y107.722 F9000
G1 X76.394 Y108.005
G1 F1200
G1 X76.453 Y107.951 E.00251
G1 X77.612 Y107.55 E.03845
G1 X86.809 Y107.543 E.28837
G1 X87.541 Y107.712 E.02356
G1 X88.175 Y108.041 E.0224
G1 X88.896 Y108.705 E.03073
G1 X89.301 Y109.302 E.02262
G1 X89.605 Y110.332 E.03367
G1 X89.605 Y129.54 E.60225
G1 X102.395 Y129.54 E.40102
G1 X102.395 Y110.33 E.60232
G1 X102.726 Y109.247 E.03551
G1 X103.076 Y108.736 E.01942
G1 X103.632 Y108.18 E.02465
G1 X104.546 Y107.683 E.03262
G1 X105.248 Y107.54 E.02246
G1 X125.88 Y107.549 E.6469
G1 X126.972 Y107.909 E.03605
G1 X127.419 Y108.23 E.01725
G1 X127.95 Y108.767 E.02368
G1 X128.345 Y109.4 E.02339
G1 X128.605 Y110.329 E.03025
G1 X128.605 Y129.54 E.60235
G1 X141.395 Y129.54 E.40102
G1 X141.395 Y110.331 E.60228
G1 X141.683 Y109.335 E.03251
G1 X141.98 Y108.854 E.01772
G1 X142.653 Y108.171 E.03006
G1 X143.127 Y107.86 E.01778
G1 X144.177 Y107.54 E.03442
G1 X153.269 Y107.54 E.28507
G1 X154.041 Y107.714 E.02481
G1 X154.745 Y108.09 E.02502
G1 X155.504 Y108.835 E.03335
G1 X155.85 Y109.403 E.02085
G1 X156.071 Y110.115 E.02337
G1 X156.106 Y113.949 E.12022
G1 X155.827 Y114.933 E.03207
G1 X155.469 Y115.499 E.021
G1 X154.754 Y116.193 E.03124
G1 X154.241 Y116.495 E.01866
G1 X153.658 Y116.694 E.01932
G1 X150.605 Y116.737 E.09573
G1 X150.605 Y135.958 E.60266
G1 X150.303 Y136.984 E.03353
G1 X149.926 Y137.551 E.02135
G1 X149.371 Y138.107 E.02463
G1 X148.523 Y138.582 E.03048
G1 X147.759 Y138.75 E.02453
G1 X122.176 Y138.75 E.80214
G1 X121.118 Y138.425 E.0347
G1 X120.646 Y138.113 E.01774
G1 X119.885 Y137.309 E.03471
G1 X119.623 Y136.816 E.0175
G1 X119.395 Y135.958 E.02784
G1 X119.395 Y116.75 E.60225
G1 X111.605 Y116.75 E.24425
G1 X111.605 Y135.969 E.6026
G1 X111.28 Y137.027 E.0347
G1 X110.974 Y137.492 E.01745
G1 X110.371 Y138.1 E.02685
G1 X109.832 Y138.452 E.02018
G1 X108.813 Y138.75 E.03329
G1 X83.187 Y138.75 E.80349
G1 X82.315 Y138.518 E.02829
G1 X81.696 Y138.153 E.02253
G1 X81.065 Y137.539 E.02761
G1 X80.765 Y137.118 E.01621
G1 X80.395 Y135.967 E.03791
G1 X80.395 Y116.749 E.60257
G1 X77.632 Y116.742 E.08663
G1 X76.765 Y116.496 E.02826
G1 X76.13 Y116.101 E.02345
G1 X75.571 Y115.546 E.0247
G1 X75.252 Y115.091 E.01742
G1 X74.905 Y114.035 E.03485
G1 X74.918 Y110.172 E.12112
G1 X75.129 Y109.454 E.02346
G1 X75.492 Y108.842 E.02231
G1 X76.35 Y108.046 E.0367
G1 X76.35 Y108.046 F9000
G1 X76.602 Y108.319
G1 F1200
G1 X76.655 Y108.27 E.00226
G1 X77.644 Y107.927 E.03282
G1 X86.788 Y107.921 E.2867
G1 X87.392 Y108.059 E.01943
G1 X87.939 Y108.336 E.01922
G1 X88.623 Y108.967 E.02918
G1 X88.971 Y109.487 E.01962
G1 X89.228 Y110.359 E.0285
G1 X89.228 Y129.917 E.61323
G1 X102.772 Y129.917 E.42466
G1 X102.772 Y110.358 E.61326
G1 X103.054 Y109.435 E.03026
G1 X103.355 Y108.99 E.01684
G1 X103.879 Y108.467 E.02321
G1 X104.698 Y108.029 E.02912
G1 X105.266 Y107.917 E.01815
G1 X125.85 Y107.926 E.6454
G1 X126.777 Y108.233 E.03062
G1 X127.162 Y108.508 E.01483
G1 X127.668 Y109.018 E.02253
G1 X127.991 Y109.531 E.01901
G1 X128.228 Y110.356 E.02691
G1 X128.228 Y129.917 E.61332
G1 X141.772 Y129.917 E.42466
G1 X141.772 Y110.358 E.61326
G1 X142.018 Y109.508 E.02774
G1 X142.265 Y109.101 E.01493
G1 X142.88 Y108.472 E.02758
G1 X143.267 Y108.211 E.01464
G1 X144.206 Y107.917 E.03085
G1 X153.247 Y107.917 E.28347
G1 X153.93 Y108.075 E.02198
G1 X154.54 Y108.408 E.02179
G1 X155.195 Y109.053 E.02882
G1 X155.499 Y109.542 E.01805
G1 X155.694 Y110.148 E.01996
G1 X155.729 Y113.926 E.11846
G1 X155.492 Y114.757 E.02709
G1 X155.189 Y115.245 E.01801
G1 X154.508 Y115.907 E.02978
G1 X153.619 Y116.317 E.0307
G1 X150.228 Y116.366 E.10633
G1 X150.228 Y135.931 E.61345
G1 X149.972 Y136.801 E.02843
G1 X149.646 Y137.299 E.01866
G1 X149.123 Y137.821 E.02317
G1 X148.366 Y138.238 E.0271
G1 X147.739 Y138.373 E.02011
G1 X122.205 Y138.373 E.8006
G1 X121.259 Y138.074 E.03111
G1 X120.875 Y137.814 E.01454
G1 X120.204 Y137.107 E.03056
G1 X119.98 Y136.694 E.01473
G1 X119.772 Y135.932 E.02477
G1 X119.772 Y116.373 E.61326
G1 X111.228 Y116.373 E.26789
G1 X111.228 Y135.94 E.61351
G1 X110.93 Y136.885 E.03107
G1 X110.673 Y137.264 E.01436
G1 X110.12 Y137.819 E.02457
