; generated by PrusaSlicer 2.7.4+win64 on 2024-10-05 at 15:26:46 UTC

; 

; external perimeters extrusion width = 0.42mm
; perimeters extrusion width = 0.44mm
; infill extrusion width = 0.44mm
; solid infill extrusion width = 0.44mm
; top infill extrusion width = 0.40mm
; support material extrusion width = 0.36mm
; first layer extrusion width = 0.42mm

M201 X500 Y500 Z100 E5000 ; sets maximum accelerations, mm/sec^2
M203 X500 Y500 Z10 E60 ; sets maximum feedrates, mm / sec
M204 S500 T1000 ; sets acceleration (S) and retract acceleration (R), mm/sec^2
M205 X8.00 Y8.00 Z0.40 E5.00 ; sets the jerk limits, mm/sec
M205 S0 T0 ; sets the minimum extruding and travel feed rate, mm/sec

; printing object servo_mount.stl id:0 copy 0
; stop printing object servo_mount.stl id:0 copy 0

;TYPE:Custom
G90 ; use absolute coordinates
M83 ; extruder relative mode
M104 S150 ; set temporary nozzle temp to prevent oozing during homing and auto bed leveling
M140 S60 ; set final bed temp
G4 S30 ; allow partial nozzle warmup
G28 ; home all axis
G29 ; auto bed levelling
G1 Z50 F240
G1 X2.0 Y10 F3000
M104 S210 ; set final nozzle temp
M190 S60 ; wait for bed temp to stabilize
M109 S210 ; wait for nozzle temp to stabilize
G1 Z0.28 F240
G92 E0
G1 X2.0 Y140 E10 F1500 ; prime the nozzle
G1 X2.3 Y140 F5000
G92 E0
G1 X2.3 Y10 E10 F1200 ; prime the nozzle
G92 E0
G21 ; set units to millimeters
G90 ; use absolute coordinates
M83 ; use relative distances for extrusion
; Filament gcode
M107
;LAYER_CHANGE
;Z:0.2
;HEIGHT:0.2
G1 E-5 F3600
G1 Z.2 F9000
G1 X56.963 Y104.757
G1 Z.2
G1 E5 F2400
M204 S500
;TYPE:Skirt/Brim
;WIDTH:0.42
G1 F1200
G1 X59.597 Y103.44 E.09234
G1 X60.835 Y103.094 E.0403
G1 X77.929 Y101.723 E.53769
G1 X153.343 Y101.734 E2.36455
G1 X170.165 Y103.094 E.52916
G1 X171.403 Y103.44 E.0403
G1 X174.037 Y104.757 E.09234
G1 X175.025 Y105.5 E.03876
G1 X175.658 Y106.378 E.03394
G1 X176.975 Y109.012 E.09234
G1 X177.332 Y110.522 E.04865
G1 X177.332 Y124.478 E.43758
G1 X176.975 Y125.988 E.04865
G1 X175.658 Y128.622 E.09234
G1 X174.915 Y129.61 E.03876
G1 X174.037 Y130.243 E.03394
G1 X171.403 Y131.56 E.09234
G1 X170.165 Y131.906 E.0403
G1 X153.071 Y133.277 E.53769
G1 X77.929 Y133.277 E2.35602
G1 X60.835 Y131.906 E.53769
G1 X59.597 Y131.56 E.0403
G1 X56.963 Y130.243 E.09234
G1 X56.085 Y129.61 E.03394
G1 X55.342 Y128.622 E.03876
G1 X54.025 Y125.988 E.09234
G1 X53.669 Y124.478 E.04864
G1 X53.669 Y110.522 E.43758
G1 X54.025 Y109.012 E.04864
G1 X55.342 Y106.378 E.09234
G1 X56.085 Y105.39 E.03876
G1 X56.914 Y104.792 E.03205
G1 E-3.5 F3600
;WIPE_START
G1 F7200
G1 X56.963 Y104.757 E-.0286
G1 X59.597 Y103.44 E-1.39883
G1 X59.744 Y103.399 E-.07257
;WIPE_END
G1 X75.314 Y109.384 F9000
G1 E5 F2400
G1 F1200
G1 X75.693 Y108.103 E.04189
G1 X76.399 Y107.031 E.04025
G1 X77.53 Y106.05 E.04694
G1 X78.881 Y105.479 E.04599
G1 X79.602 Y105.387 E.02279
G1 X151.486 Y105.39 E2.25387
G1 X152.435 Y105.574 E.03031
G1 X153.343 Y105.965 E.031
G1 X154.562 Y106.988 E.0499
G1 X155.353 Y108.206 E.04554
G1 X155.714 Y109.59 E.04485
G1 X155.677 Y125.676 E.50437
G1 X155.304 Y126.903 E.04021
G1 X154.601 Y127.97 E.04006
G1 X153.47 Y128.95 E.04692
G1 X152.119 Y129.521 E.04599
G1 X151.398 Y129.613 E.02279
G1 X79.49 Y129.613 E2.25462
G1 X78.116 Y129.257 E.0445
G1 X76.932 Y128.502 E.04403
G1 X75.95 Y127.37 E.04699
G1 X75.379 Y126.019 E.04599
G1 X75.287 Y125.298 E.02279
G1 X75.314 Y109.444 E.49709
G1 X75.314 Y109.444 F9000
G1 X75.684 Y109.463
G1 F1200
G1 X76.025 Y108.284 E.03848
G1 X76.667 Y107.296 E.03694
G1 X77.707 Y106.385 E.04335
G1 X78.956 Y105.85 E.0426
G1 X79.614 Y105.764 E.02081
G1 X151.468 Y105.767 E2.25293
G1 X152.341 Y105.94 E.0279
G1 X153.166 Y106.299 E.02821
G1 X154.297 Y107.258 E.04649
G1 X154.996 Y108.332 E.04018
G1 X155.336 Y109.614 E.04159
G1 X155.308 Y125.595 E.50107
G1 X154.973 Y126.721 E.03683
G1 X154.332 Y127.704 E.0368
G1 X153.293 Y128.615 E.04333
G1 X152.044 Y129.15 E.0426
G1 X151.386 Y129.236 E.02081
G1 X79.514 Y129.236 E2.2535
G1 X78.291 Y128.922 E.03959
G1 X77.196 Y128.233 E.04056
G1 X76.285 Y127.193 E.04335
G1 X75.75 Y125.944 E.0426
G1 X75.664 Y125.286 E.02081
G1 X75.684 Y109.523 E.49424
G1 X75.684 Y109.523 F9000
G1 X76.054 Y109.54
G1 F1200
G1 X76.358 Y108.463 E.03509
G1 X76.938 Y107.56 E.03365
G1 X77.886 Y106.718 E.03976
G1 X79.032 Y106.22 E.03918
G1 X79.627 Y106.141 E.01882
G1 X151.448 Y106.144 E2.2519
G1 X152.246 Y106.305 E.02552
G1 X152.988 Y106.633 E.02544
G1 X154.03 Y107.526 E.04303
G1 X154.663 Y108.51 E.03669
G1 X154.959 Y109.638 E.03657
G1 X154.938 Y125.516 E.49784
G1 X154.64 Y126.541 E.03347
G1 X154.061 Y127.44 E.03353
G1 X153.114 Y128.282 E.03973
G1 X151.968 Y128.78 E.03918
G1 X151.373 Y128.859 E.01882
G1 X79.538 Y128.859 E2.25234
G1 X78.416 Y128.565 E.03637
G1 X77.46 Y127.962 E.03544
G1 X76.618 Y127.014 E.03976
G1 X76.12 Y125.868 E.03918
G1 X76.041 Y125.273 E.01882
G1 X76.054 Y109.6 E.49142
G1 X76.054 Y109.6 F9000
G1 X76.424 Y109.615
G1 F1200
G1 X76.692 Y108.64 E.0317
G1 X77.21 Y107.822 E.03036
G1 X78.067 Y107.05 E.03617
G1 X79.11 Y106.59 E.03574
G1 X79.64 Y106.518 E.01677
G1 X151.429 Y106.521 E2.25089
G1 X152.148 Y106.67 E.02302
G1 X152.808 Y106.965 E.02267
G1 X153.762 Y107.792 E.03959
G1 X154.306 Y108.637 E.03151
G1 X154.582 Y109.663 E.03331
G1 X154.568 Y125.439 E.49465
G1 X154.307 Y126.363 E.0301
G1 X153.789 Y127.178 E.03028
G1 X152.933 Y127.95 E.03614
G1 X151.89 Y128.41 E.03574
G1 X151.36 Y128.482 E.01677
G1 X79.562 Y128.482 E2.25118
G1 X78.59 Y128.229 E.03149
G1 X77.722 Y127.689 E.03205
G1 X76.95 Y126.833 E.03614
G1 X76.49 Y125.79 E.03574
G1 X76.418 Y125.26 E.01677
G1 X76.424 Y109.675 E.48866
G1 X76.424 Y109.675 F9000
G1 X76.795 Y109.687
G1 F1200
G1 X77.027 Y108.815 E.02829
G1 X77.485 Y108.082 E.0271
G1 X78.25 Y107.381 E.03253
G1 X79.189 Y106.959 E.03228
G1 X79.653 Y106.895 E.01469
G1 X151.41 Y106.898 E2.24989
G1 X152.013 Y107.023 E.01931
G1 X152.628 Y107.297 E.02111
G1 X153.492 Y108.057 E.03608
G1 X153.972 Y108.814 E.0281
G1 X154.205 Y109.687 E.02833
G1 X154.198 Y125.361 E.49145
G1 X153.951 Y126.234 E.02845
G1 X153.516 Y126.918 E.02542
G1 X152.75 Y127.619 E.03256
G1 X151.811 Y128.041 E.03228
G1 X151.347 Y128.105 E.01469
G1 X79.587 Y128.105 E2.24998
G1 X78.715 Y127.873 E.02829
G1 X77.982 Y127.415 E.0271
G1 X77.281 Y126.65 E.03253
G1 X76.859 Y125.711 E.03228
G1 X76.795 Y125.247 E.01469
G1 X76.795 Y109.747 E.48599
G1 X76.795 Y109.747 F9000
G1 X77.172 Y109.747
G1 F1200
G1 X77.172 Y109.713 E.00107
G1 X77.383 Y108.942 E.02506
G1 X77.76 Y108.34 E.02227
G1 X78.436 Y107.711 E.02895
G1 X79.271 Y107.329 E.02879
G1 X79.667 Y107.272 E.01254
G1 X151.389 Y107.276 E2.24879
G1 X151.914 Y107.387 E.01682
G1 X152.445 Y107.628 E.01828
G1 X153.222 Y108.321 E.03264
G1 X153.616 Y108.941 E.02303
G1 X153.828 Y109.713 E.0251
G1 X153.828 Y125.287 E.48831
G1 X153.617 Y126.058 E.02506
G1 X153.24 Y126.66 E.02227
G1 X152.564 Y127.289 E.02895
G1 X151.729 Y127.671 E.02879
G1 X151.333 Y127.728 E.01254
G1 X79.613 Y127.728 E2.24873
G1 X78.842 Y127.517 E.02506
G1 X78.24 Y127.14 E.02227
G1 X77.611 Y126.464 E.02895
G1 X77.229 Y125.629 E.02879
G1 X77.172 Y125.233 E.01254
G1 X77.172 Y109.807 E.48367
G1 X77.172 Y109.807 F9000
G1 X77.549 Y109.806
G1 F1200
G1 X77.549 Y109.74 E.00207
G1 X77.738 Y109.071 E.0218
G1 X78.038 Y108.597 E.01759
G1 X78.624 Y108.038 E.02539
G1 X79.354 Y107.697 E.02526
G1 X151.368 Y107.653 E2.25795
G1 X151.811 Y107.75 E.01422
G1 X152.259 Y107.958 E.01549
G1 X152.95 Y108.583 E.02921
G1 X153.262 Y109.071 E.01816
G1 X153.451 Y109.74 E.0218
G1 X153.451 Y125.26 E.48662
G1 X153.262 Y125.929 E.0218
G1 X152.962 Y126.403 E.01759
G1 X152.376 Y126.962 E.02539
G1 X151.646 Y127.303 E.02526
G1 X79.64 Y127.351 E2.2577
G1 X78.971 Y127.162 E.0218
G1 X78.497 Y126.862 E.01759
G1 X77.938 Y126.276 E.02539
G1 X77.597 Y125.546 E.02526
G1 X77.549 Y109.866 E.49164
G1 X77.549 Y109.866 F9000
G1 X77.926 Y109.866
G1 F1200
G1 X77.926 Y109.768 E.00307
G1 X78.092 Y109.204 E.01843
G1 X78.317 Y108.851 E.01313
G1 X78.817 Y108.364 E.02188
G1 X79.44 Y108.065 E.02167
G1 X79.696 Y108.026 E.00812
G1 X151.346 Y108.03 E2.24654
G1 X151.705 Y108.113 E.01155
G1 X152.071 Y108.285 E.01268
G1 X152.676 Y108.843 E.02581
G1 X152.908 Y109.205 E.01348
G1 X153.074 Y109.768 E.0184
G1 X153.074 Y125.232 E.48486
G1 X152.908 Y125.796 E.01843
G1 X152.683 Y126.149 E.01313
G1 X152.183 Y126.636 E.02188
G1 X151.56 Y126.935 E.02167
G1 X151.304 Y126.974 E.00812
G1 X79.668 Y126.974 E2.2461
G1 X79.104 Y126.808 E.01843
G1 X78.751 Y126.583 E.01313
G1 X78.264 Y126.083 E.02188
G1 X77.965 Y125.46 E.02167
G1 X77.926 Y125.204 E.00812
G1 X77.926 Y109.926 E.47903
G1 X78.303 Y109.925 F9000
G1 F1200
G1 X78.303 Y109.798 E.00398
G1 X78.598 Y109.102 E.0237
G1 X79.013 Y108.687 E.0184
G1 X79.53 Y108.433 E.01806
G1 X151.324 Y108.407 E2.25105
G1 X151.882 Y108.613 E.01865
G1 X152.401 Y109.101 E.02234
G1 X152.697 Y109.798 E.02374
G1 X152.697 Y125.202 E.48298
G1 X152.402 Y125.898 E.0237
G1 X151.987 Y126.313 E.0184
G1 X151.47 Y126.567 E.01806
G1 X79.698 Y126.597 E2.25036
G1 X79.002 Y126.302 E.0237
G1 X78.587 Y125.887 E.0184
G1 X78.333 Y125.37 E.01806
G1 X78.304 Y109.985 E.48239
G1 X78.304 Y109.985 F9000
G1 X78.68 Y109.985
G1 F1200
G1 X78.68 Y109.829 E.00489
G1 X78.878 Y109.356 E.01608
G1 X79.257 Y108.976 E.01683
G1 X79.729 Y108.78 E.01602
G1 X151.302 Y108.784 E2.24412
G1 X151.692 Y108.94 E.01317
G1 X152.123 Y109.357 E.0188
G1 X152.32 Y109.829 E.01604
G1 X152.32 Y125.171 E.48104
G1 X152.122 Y125.644 E.01608
G1 X151.743 Y126.024 E.01683
G1 X151.271 Y126.22 E.01602
G1 X79.729 Y126.22 E2.24315
G1 X79.256 Y126.022 E.01608
G1 X78.876 Y125.643 E.01683
G1 X78.68 Y125.171 E.01602
G1 X78.68 Y110.045 E.47427
G1 X78.68 Y110.045 F9000
G1 X79.057 Y110.045
G1 F1200
G1 X79.057 Y109.864 E.00568
G1 X79.157 Y109.61 E.00856
G1 X79.5 Y109.267 E.01521
G1 X79.718 Y109.164 E.00756
G1 X151.282 Y109.164 E2.24384
G1 X151.5 Y109.267 E.00756
G1 X151.843 Y109.61 E.01521
G1 X151.943 Y109.864 E.00856
G1 X151.943 Y125.136 E.47884
G1 X151.843 Y125.39 E.00856
G1 X151.5 Y125.733 E.01521
G1 X151.282 Y125.836 E.00756
G1 X79.764 Y125.843 E2.2424
G1 X79.51 Y125.743 E.00856
G1 X79.167 Y125.4 E.01521
G1 X79.064 Y125.182 E.00756
G1 X79.057 Y110.105 E.47273
G1 X79.057 Y110.105 F9000
G1 X79.434 Y110.105
G1 F1200
G1 X79.434 Y109.906 E.00624
G1 X79.806 Y109.534 E.0165
G1 X151.194 Y109.534 E2.23832
G1 X151.566 Y109.906 E.0165
G1 X151.566 Y125.094 E.47621
G1 X151.194 Y125.466 E.0165
G1 X79.806 Y125.466 E2.23832
G1 X79.434 Y125.094 E.0165
G1 X79.434 Y110.165 E.46809
G1 X79.434 Y110.165 F9000
G1 X79.811 Y110.165
G1 F1200
G1 X79.811 Y110.022 E.00448
G1 X79.922 Y109.911 E.00492
G1 X151.078 Y109.911 E2.23105
G1 X151.189 Y110.022 E.00492
G1 X151.189 Y124.978 E.46893
G1 X151.078 Y125.089 E.00492
G1 X79.922 Y125.089 E2.23105
G1 X79.811 Y124.978 E.00492
G1 X79.811 Y110.225 E.46257
G1 E-3.5 F3600
;WIPE_START
G1 F7200
G1 X79.811 Y110.165 E-.0285
G1 X79.811 Y110.022 E-.06793
G1 X79.922 Y109.911 E-.07456
G1 X82.72 Y109.911 E-1.32901
;WIPE_END
; printing object servo_mount.stl id:0 copy 0
G1 X169.815 Y107.966 F9000
G1 E5 F2400
;TYPE:Support material
G1 F1200
G1 X172.449 Y107.966 E.08259
G1 X172.449 Y110.6 E.08259
G1 X173.766 Y110.6 E.04129
G1 X173.766 Y124.4 E.43269
G1 X172.449 Y124.4 E.04129
G1 X172.449 Y127.034 E.08259
G1 X169.815 Y127.034 E.08259
G1 X169.815 Y128.351 E.04129
G1 X154.998 Y128.351 E.46458
G1 X155.901 Y127.034 E.05007
G1 X156.31 Y125.021 E.06441
G1 X156.31 Y119.82 E.16307
G1 X159.966 Y119.82 E.11463
G1 X159.966 Y115.18 E.14548
G1 X156.31 Y115.18 E.11463
G1 X156.31 Y109.981 E.16301
G1 X155.963 Y108.119 E.05939
G1 X155.023 Y106.649 E.05471
G1 X169.815 Y106.649 E.46379
G1 X169.815 Y107.91 E.03954
G1 X169.815 Y107.91 F9000
G1 X173.319 Y124.23
G1 F1200
G1 X173.319 Y110.94 E.4167
G1 X172.9 Y110.94 E.01314
G1 X172.9 Y124.06 E.41137
G1 X172.481 Y124.06 E.01314
G1 X172.481 Y110.94 E.41137
G1 X172.109 Y110.94 E.01166
G1 X172.062 Y108.306 E.0826
G1 X172.062 Y126.694 E.57654
G1 X171.643 Y126.694 E.01314
G1 X171.643 Y108.306 E.57654
G1 X171.224 Y108.306 E.01314
G1 X171.224 Y126.694 E.57654
G1 X170.805 Y126.694 E.01314
G1 X170.805 Y108.306 E.57654
G1 X170.386 Y108.306 E.01314
G1 X170.386 Y126.694 E.57654
G1 X169.967 Y126.694 E.01314
G1 X169.967 Y108.306 E.57654
G1 X169.548 Y108.306 E.01314
G1 X169.548 Y126.694 E.57654
G1 X169.475 Y126.694 E.00229
G1 X169.475 Y128.012 E.04132
G1 X169.129 Y128.012 E.01085
G1 X169.129 Y106.988 E.65919
G1 X168.71 Y106.988 E.01314
G1 X168.71 Y128.012 E.65919
G1 X168.291 Y128.012 E.01314
G1 X168.291 Y106.988 E.65919
G1 X167.872 Y106.988 E.01314
G1 X167.872 Y128.012 E.65919
G1 X167.453 Y128.012 E.01314
G1 X167.453 Y106.988 E.65919
G1 X167.034 Y106.988 E.01314
G1 X167.034 Y128.012 E.65919
G1 X166.615 Y128.012 E.01314
G1 X166.615 Y106.988 E.65919
G1 X166.196 Y106.988 E.01314
G1 X166.196 Y128.012 E.65919
G1 X165.777 Y128.012 E.01314
G1 X165.777 Y106.988 E.65919
G1 X165.358 Y106.988 E.01314
G1 X165.358 Y128.012 E.65919
G1 X164.939 Y128.012 E.01314
G1 X164.939 Y106.989 E.65916
G1 X164.52 Y106.989 E.01314
G1 X164.52 Y128.012 E.65916
G1 X164.101 Y128.012 E.01314
G1 X164.101 Y106.989 E.65916
G1 X163.682 Y106.989 E.01314
G1 X163.682 Y128.012 E.65916
G1 X163.263 Y128.012 E.01314
G1 X163.263 Y106.989 E.65916
G1 X162.844 Y106.989 E.01314
G1 X162.844 Y128.012 E.65916
G1 X162.425 Y128.012 E.01314
G1 X162.425 Y106.989 E.65916
G1 X162.006 Y106.989 E.01314
G1 X162.006 Y128.012 E.65916
G1 X161.587 Y128.012 E.01314
G1 X161.587 Y106.989 E.65916
G1 X161.168 Y106.989 E.01314
G1 X161.168 Y128.012 E.65916
G1 X160.75 Y128.012 E.01311
G1 X160.75 Y106.989 E.65916
G1 X160.331 Y106.989 E.01314
G1 X160.331 Y128.012 E.65916
G1 X159.912 Y128.012 E.01314
G1 X159.912 Y120.159 E.24623
G1 X159.493 Y120.159 E.01314
G1 X159.493 Y128.012 E.24623
G1 X159.074 Y128.012 E.01314
G1 X159.074 Y120.159 E.24623
G1 X158.655 Y120.159 E.01314
G1 X158.655 Y128.012 E.24623
G1 X158.236 Y128.012 E.01314
G1 X158.236 Y120.159 E.24623
G1 X157.817 Y120.159 E.01314
G1 X157.817 Y128.012 E.24623
G1 X157.398 Y128.012 E.01314
G1 X157.398 Y120.159 E.24623
G1 X156.979 Y120.159 E.01314
G1 X156.979 Y128.012 E.24623
G1 X156.56 Y128.012 E.01314
G1 X156.56 Y125.497 E.07886
G1 X156.22 Y127.169 E.0535
G1 X156.141 Y127.285 E.0044
G1 X156.141 Y128.012 E.02279
G1 X155.722 Y128.012 E.01314
G1 X155.722 Y127.596 E.01304
G1 E-3.5 F3600
;WIPE_START
G1 F7200
G1 X155.722 Y128.012 E-.1976
G1 X156.141 Y128.012 E-.19902
G1 X156.141 Y127.285 E-.34533
G1 X156.22 Y127.169 E-.06666
G1 X156.51 Y125.742 E-.69139
;WIPE_END
G1 X159.912 Y115.01 F9000
G1 E5 F2400
G1 F1200
G1 X159.912 Y106.989 E.25149
G1 X159.493 Y106.989 E.01314
G1 X159.493 Y114.841 E.24619
G1 X159.074 Y114.841 E.01314
G1 X159.074 Y106.989 E.24619
G1 X158.655 Y106.989 E.01314
G1 X158.655 Y114.841 E.24619
G1 X158.236 Y114.841 E.01314
G1 X158.236 Y106.989 E.24619
G1 X157.817 Y106.989 E.01314
G1 X157.817 Y114.841 E.24619
G1 X157.398 Y114.841 E.01314
G1 X157.398 Y106.989 E.24619
G1 X156.979 Y106.989 E.01314
G1 X156.979 Y114.841 E.24619
G1 X156.649 Y114.841 E.01035
G1 X156.649 Y109.949 E.15339
G1 X156.56 Y109.469 E.01531
G1 X156.56 Y106.989 E.07776
G1 X156.141 Y106.989 E.01314
G1 X156.141 Y107.767 E.02439
G1 X155.722 Y107.112 E.02438
G1 X155.722 Y106.819 E.00919
G1 E-3.5 F3600
;WIPE_START
G1 F7200
G1 X155.722 Y107.112 E-.13918
G1 X156.141 Y107.767 E-.36934
G1 X156.141 Y106.989 E-.36955
G1 X156.56 Y106.989 E-.19903
G1 X156.56 Y107.879 E-.4229
;WIPE_END
G1 X75.099 Y107.966 F9000
G1 E5 F2400
G1 F1200
G1 X74.69 Y109.979 E.06441
G1 X74.69 Y115.18 E.16307
G1 X71.034 Y115.18 E.11463
G1 X71.034 Y119.82 E.14548
G1 X74.69 Y119.82 E.11463
G1 X74.69 Y125.019 E.16301
G1 X75.037 Y126.881 E.05939
G1 X75.977 Y128.351 E.05471
G1 X61.185 Y128.351 E.46379
G1 X61.185 Y127.034 E.04129
G1 X58.551 Y127.034 E.08259
G1 X58.551 Y124.4 E.08259
G1 X57.234 Y124.4 E.04129
G1 X57.234 Y110.6 E.43269
G1 X58.551 Y110.6 E.04129
G1 X58.551 Y107.966 E.08259
G1 X61.185 Y107.966 E.08259
G1 X61.185 Y106.649 E.04129
G1 X76.002 Y106.649 E.46458
G1 X75.131 Y107.92 E.04831
G1 E-3.5 F3600
;WIPE_START
G1 F7200
G1 X76.002 Y106.649 E-.73188
G1 X74.385 Y106.649 E-.76812
;WIPE_END
G1 X75.278 Y128.181 F9000
G1 E5 F2400
G1 F1200
G1 X75.278 Y127.888 E.00919
