; generated by PrusaSlicer 2.7.4+win64 on 2024-10-05 at 15:40:58 UTC

; 

; external perimeters extrusion width = 0.42mm
; perimeters extrusion width = 0.44mm
; infill extrusion width = 0.44mm
; solid infill extrusion width = 0.44mm
; top infill extrusion width = 0.40mm
; first layer extrusion width = 0.42mm

M201 X500 Y500 Z100 E5000 ; sets maximum accelerations, mm/sec^2
M203 X500 Y500 Z10 E60 ; sets maximum feedrates, mm / sec
M204 S500 T1000 ; sets acceleration (S) and retract acceleration (R), mm/sec^2
M205 X8.00 Y8.00 Z0.40 E5.00 ; sets the jerk limits, mm/sec
M205 S0 T0 ; sets the minimum extruding and travel feed rate, mm/sec

; printing object steering_rod.stl id:0 copy 0
; stop printing object steering_rod.stl id:0 copy 0

;TYPE:Custom
G90 ; use absolute coordinates
M83 ; extruder relative mode
M104 S150 ; set temporary nozzle temp to prevent oozing during homing and auto bed leveling
M140 S60 ; set final bed temp
G4 S30 ; allow partial nozzle warmup
G28 ; home all axis
G29 ; auto bed levelling
G1 Z50 F240
G1 X2.0 Y10 F3000
M104 S210 ; set final nozzle temp
M190 S60 ; wait for bed temp to stabilize
M109 S210 ; wait for nozzle temp to stabilize
G1 Z0.28 F240
G92 E0
G1 X2.0 Y140 E10 F1500 ; prime the nozzle
G1 X2.3 Y140 F5000
G92 E0
G1 X2.3 Y10 E10 F1200 ; prime the nozzle
G92 E0
G21 ; set units to millimeters
G90 ; use absolute coordinates
M83 ; use relative distances for extrusion
; Filament gcode
M107
;LAYER_CHANGE
;Z:0.2
;HEIGHT:0.2
G1 E-5 F3600
G1 Z.2 F9000
G1 X58.438 Y104.541
G1 Z.2
G1 E5 F2400
M204 S500
;TYPE:Skirt/Brim
;WIDTH:0.42
G1 F1200
G1 X60.576 Y103.603 E.0732
G1 X62.715 Y103.1 E.0689
G1 X64.389 Y102.973 E.05264
G1 X166.728 Y102.976 E3.20877
G1 X168.711 Y103.169 E.06247
G1 X170.877 Y103.767 E.07045
G1 X172.248 Y104.371 E.04697
G1 X173.356 Y105.021 E.04028
G1 X174.157 Y105.59 E.03081
G1 X175.152 Y106.441 E.04105
G1 X176.03 Y107.374 E.04017
G1 X176.689 Y108.212 E.03343
G1 X177.835 Y110.166 E.07103
G1 X178.354 Y111.451 E.04345
G1 X178.625 Y112.349 E.02941
G1 X178.876 Y113.567 E.03899
G1 X179.006 Y114.765 E.03778
G1 X179.018 Y115.904 E.03571
G1 X178.921 Y117.125 E.0384
G1 X178.437 Y119.3 E.06986
G1 X177.602 Y121.304 E.06807
G1 X176.377 Y123.203 E.07086
G1 X174.978 Y124.717 E.06463
G1 X173.868 Y125.63 E.04506
G1 X172.691 Y126.387 E.04388
G1 X171.729 Y126.878 E.03386
G1 X170.424 Y127.397 E.04403
G1 X168.285 Y127.9 E.0689
G1 X166.611 Y128.027 E.05264
G1 X64.405 Y128.027 E3.2046
G1 X62.883 Y127.921 E.04784
G1 X60.761 Y127.455 E.06812
G1 X58.931 Y126.719 E.06185
G1 X57.132 Y125.63 E.06594
G1 X55.544 Y124.258 E.0658
G1 X54.341 Y122.831 E.05852
G1 X53.264 Y121.043 E.06545
G1 X52.502 Y119.101 E.06541
G1 X52.054 Y116.921 E.06978
G1 X52.001 Y114.655 E.07107
G1 X52.14 Y113.47 E.03741
G1 X52.404 Y112.241 E.03941
G1 X52.724 Y111.24 E.03295
G1 X53.346 Y109.796 E.0493
G1 X54.092 Y108.538 E.04586
G1 X54.648 Y107.763 E.02991
G1 X55.643 Y106.641 E.04702
G1 X56.636 Y105.758 E.04166
G1 X57.509 Y105.108 E.03413
G1 X58.387 Y104.572 E.03225
G1 E-3.5 F3600
;WIPE_START
G1 F7200
G1 X58.438 Y104.541 E-.02835
G1 X60.576 Y103.603 E-1.10899
G1 X61.319 Y103.428 E-.36266
;WIPE_END
G1 X60.294 Y107.729 F9000
G1 E5 F2400
G1 F1200
G1 X60.612 Y107.537 E.01165
G1 X61.706 Y107.09 E.03705
G1 X62.837 Y106.794 E.03666
G1 X64.16 Y106.648 E.04173
G1 X166.832 Y106.647 E3.21921
G1 X168.036 Y106.779 E.03798
G1 X169.532 Y107.172 E.0485
G1 X170.827 Y107.766 E.04467
G1 X171.917 Y108.488 E.04099
G1 X172.889 Y109.358 E.0409
G1 X173.78 Y110.443 E.04402
G1 X174.381 Y111.445 E.03663
G1 X174.846 Y112.526 E.0369
G1 X175.244 Y114.059 E.04966
G1 X175.363 Y115.522 E.04602
G1 X175.273 Y116.749 E.03858
G1 X175.016 Y117.955 E.03866
G1 X174.519 Y119.274 E.04419
G1 X173.791 Y120.538 E.04574
G1 X172.868 Y121.663 E.04563
G1 X171.87 Y122.548 E.04182
G1 X170.866 Y123.213 E.03776
G1 X169.561 Y123.816 E.04507
G1 X168.19 Y124.2 E.04464
G1 X166.842 Y124.352 E.04253
G1 X64.158 Y124.352 E3.21958
G1 X62.811 Y124.2 E.0425
G1 X61.439 Y123.816 E.04467
G1 X60.135 Y123.214 E.04503
G1 X59.171 Y122.58 E.03618
G1 X58.285 Y121.818 E.03664
G1 X57.276 Y120.634 E.04878
G1 X56.48 Y119.273 E.04944
G1 X55.984 Y117.956 E.04413
G1 X55.748 Y116.89 E.03423
G1 X55.646 Y115.826 E.03351
G1 X55.738 Y114.172 E.05194
G1 X56.14 Y112.562 E.05203
G1 X56.589 Y111.504 E.03604
G1 X57.19 Y110.489 E.03699
G1 X58.088 Y109.381 E.04472
G1 X59.262 Y108.353 E.04893
G1 X60.243 Y107.76 E.03594
G1 X60.243 Y107.76 F9000
G1 X60.437 Y108.08
G1 F1200
G1 X60.768 Y107.88 E.01213
G1 X61.814 Y107.451 E.03545
G1 X62.918 Y107.163 E.03577
G1 X64.191 Y107.024 E.04015
G1 X166.802 Y107.024 E3.2173
G1 X167.955 Y107.147 E.03636
G1 X169.391 Y107.522 E.04653
G1 X170.631 Y108.089 E.04275
G1 X171.676 Y108.779 E.03926
G1 X172.607 Y109.609 E.03911
G1 X173.464 Y110.65 E.04228
G1 X174.051 Y111.628 E.03576
G1 X174.495 Y112.665 E.03537
G1 X174.873 Y114.128 E.04738
G1 X174.985 Y115.526 E.04397
G1 X174.898 Y116.708 E.03716
G1 X174.65 Y117.862 E.03701
G1 X174.172 Y119.126 E.04237
G1 X173.473 Y120.336 E.04381
G1 X172.587 Y121.411 E.04368
G1 X171.63 Y122.257 E.04005
G1 X170.671 Y122.89 E.03603
G1 X169.417 Y123.467 E.04328
G1 X168.104 Y123.832 E.04273
G1 X166.811 Y123.976 E.04079
G1 X64.189 Y123.976 E3.21764
G1 X62.897 Y123.833 E.04076
G1 X61.582 Y123.467 E.0428
G1 X60.33 Y122.891 E.04321
G1 X59.407 Y122.285 E.03462
G1 X58.562 Y121.561 E.03489
G1 X57.593 Y120.429 E.04672
G1 X56.827 Y119.124 E.04745
G1 X56.349 Y117.861 E.04234
G1 X56.119 Y116.82 E.03343
G1 X56.022 Y115.8 E.03213
G1 X56.11 Y114.236 E.04912
G1 X56.492 Y112.699 E.04966
G1 X56.92 Y111.685 E.03451
G1 X57.507 Y110.693 E.03614
G1 X58.37 Y109.632 E.04288
G1 X59.497 Y108.648 E.04691
G1 X60.385 Y108.111 E.03254
G1 X60.385 Y108.111 F9000
G1 X60.579 Y108.432
G1 F1200
G1 X60.925 Y108.224 E.01266
G1 X61.945 Y107.805 E.03457
G1 X63 Y107.531 E.03418
G1 X64.221 Y107.4 E.0385
G1 X166.773 Y107.4 E3.21545
G1 X167.875 Y107.516 E.03474
G1 X169.25 Y107.872 E.04453
G1 X170.436 Y108.412 E.04086
G1 X171.436 Y109.07 E.03753
G1 X172.326 Y109.861 E.03733
G1 X173.148 Y110.856 E.04047
G1 X173.71 Y111.789 E.03415
G1 X174.145 Y112.804 E.03462
G1 X174.502 Y114.197 E.04509
G1 X174.608 Y115.529 E.0419
G1 X174.523 Y116.666 E.03575
G1 X174.285 Y117.768 E.03535
G1 X173.825 Y118.977 E.04056
G1 X173.155 Y120.133 E.04189
G1 X172.306 Y121.159 E.04176
G1 X171.391 Y121.965 E.03823
G1 X170.476 Y122.567 E.03434
G1 X169.274 Y123.118 E.04146
G1 X168.018 Y123.465 E.04086
G1 X166.78 Y123.6 E.03905
G1 X64.219 Y123.6 E3.21573
G1 X62.982 Y123.465 E.03902
G1 X61.725 Y123.118 E.04089
G1 X60.525 Y122.568 E.04139
G1 X59.624 Y121.977 E.03379
G1 X58.819 Y121.285 E.03328
G1 X57.89 Y120.197 E.04486
G1 X57.174 Y118.975 E.04441
G1 X56.715 Y117.766 E.04055
G1 X56.49 Y116.75 E.03263
G1 X56.399 Y115.775 E.0307
G1 X56.484 Y114.285 E.04679
G1 X56.843 Y112.836 E.04681
G1 X57.251 Y111.866 E.03299
G1 X57.824 Y110.897 E.0353
G1 X58.652 Y109.883 E.04105
G1 X59.732 Y108.943 E.04489
G1 X60.528 Y108.463 E.02914
G1 X60.528 Y108.463 F9000
G1 X60.721 Y108.784
G1 F1200
G1 X61.082 Y108.567 E.01321
G1 X62.052 Y108.167 E.0329
G1 X63.081 Y107.9 E.03333
G1 X64.251 Y107.776 E.03689
G1 X166.744 Y107.776 E3.2136
G1 X167.795 Y107.885 E.03313
G1 X169.109 Y108.222 E.04253
G1 X170.242 Y108.736 E.03901
G1 X171.217 Y109.377 E.03659
G1 X172.064 Y110.133 E.0356
G1 X172.832 Y111.063 E.03782
G1 X173.38 Y111.972 E.03328
G1 X173.794 Y112.942 E.03307
G1 X174.132 Y114.265 E.04281
G1 X174.231 Y115.532 E.03985
G1 X174.152 Y116.599 E.03355
G1 X173.919 Y117.674 E.03449
G1 X173.479 Y118.828 E.03872
G1 X172.837 Y119.929 E.03996
G1 X172.026 Y120.907 E.03984
G1 X171.153 Y121.672 E.03639
G1 X170.281 Y122.244 E.0327
G1 X169.132 Y122.769 E.03961
G1 X167.933 Y123.097 E.03898
G1 X166.75 Y123.224 E.03731
G1 X64.249 Y123.224 E3.21385
G1 X63.067 Y123.097 E.03727
G1 X61.868 Y122.769 E.03898
G1 X60.719 Y122.244 E.03961
G1 X59.86 Y121.683 E.03217
G1 X59.075 Y121.009 E.03244
G1 X58.207 Y119.991 E.04195
G1 X57.52 Y118.826 E.04241
G1 X57.08 Y117.671 E.03875
G1 X56.86 Y116.68 E.03183
G1 X56.775 Y115.75 E.02928
G1 X56.855 Y114.349 E.044
G1 X57.195 Y112.972 E.04447
G1 X57.583 Y112.046 E.03148
G1 X58.141 Y111.102 E.03438
G1 X58.933 Y110.134 E.03922
G1 X59.967 Y109.239 E.04288
G1 X60.67 Y108.815 E.02574
G1 X60.67 Y108.815 F9000
G1 X60.863 Y109.136
G1 F1200
G1 X61.238 Y108.91 E.01373
G1 X62.184 Y108.521 E.03207
G1 X63.161 Y108.268 E.03164
G1 X64.28 Y108.152 E.03527
G1 X166.715 Y108.152 E3.21178
G1 X167.716 Y108.254 E.03155
G1 X168.969 Y108.573 E.04054
G1 X170.048 Y109.059 E.0371
G1 X170.977 Y109.669 E.03485
G1 X171.783 Y110.384 E.03378
G1 X172.517 Y111.27 E.03607
G1 X173.038 Y112.132 E.03158
G1 X173.443 Y113.081 E.03235
G1 X173.761 Y114.333 E.0405
G1 X173.854 Y115.534 E.03777
G1 X173.777 Y116.558 E.0322
G1 X173.554 Y117.579 E.03277
G1 X173.132 Y118.678 E.03691
G1 X172.52 Y119.725 E.03802
G1 X171.746 Y120.654 E.03791
G1 X170.915 Y121.38 E.0346
G1 X170.087 Y121.92 E.03099
G1 X168.99 Y122.419 E.03779
G1 X167.85 Y122.729 E.03704
G1 X166.721 Y122.848 E.0356
G1 X64.279 Y122.848 E3.212
G1 X63.151 Y122.729 E.03556
G1 X62.01 Y122.419 E.03707
G1 X60.913 Y121.92 E.03779
G1 X60.096 Y121.388 E.03057
G1 X59.352 Y120.752 E.03069
G1 X58.523 Y119.784 E.03996
G1 X57.867 Y118.676 E.04037
G1 X57.445 Y117.575 E.03697
G1 X57.231 Y116.611 E.03096
G1 X57.152 Y115.726 E.02786
G1 X57.229 Y114.397 E.04174
G1 X57.547 Y113.107 E.04166
G1 X57.914 Y112.227 E.0299
G1 X58.458 Y111.306 E.03354
G1 X59.214 Y110.387 E.03731
G1 X60.201 Y109.535 E.04088
G1 X60.812 Y109.167 E.02236
G1 X60.812 Y109.167 F9000
G1 X61.005 Y109.488
G1 F1200
G1 X61.396 Y109.253 E.0143
G1 X62.291 Y108.882 E.03038
G1 X63.241 Y108.637 E.03076
G1 X64.308 Y108.528 E.03363
G1 X166.687 Y108.528 E3.21002
G1 X167.637 Y108.623 E.02994
G1 X168.83 Y108.923 E.03857
G1 X169.854 Y109.383 E.0352
G1 X170.738 Y109.96 E.0331
G1 X171.502 Y110.637 E.03201
G1 X172.202 Y111.478 E.03431
G1 X172.709 Y112.316 E.03071
G1 X173.092 Y113.218 E.03073
G1 X173.389 Y114.4 E.03821
G1 X173.477 Y115.536 E.03573
G1 X173.402 Y116.516 E.03082
G1 X173.189 Y117.484 E.03108
G1 X172.786 Y118.528 E.03509
G1 X172.219 Y119.496 E.03517
G1 X171.486 Y120.38 E.03601
G1 X170.677 Y121.087 E.03369
G1 X169.894 Y121.596 E.02928
G1 X168.849 Y122.069 E.03597
G1 X167.766 Y122.361 E.03517
G1 X166.692 Y122.472 E.03385
G1 X64.307 Y122.472 E3.21021
G1 X63.234 Y122.361 E.03382
G1 X62.151 Y122.069 E.03517
G1 X61.106 Y121.596 E.03597
G1 X60.331 Y121.093 E.02897
G1 X59.608 Y120.475 E.02982
G1 X58.82 Y119.552 E.03805
G1 X58.213 Y118.526 E.03738
G1 X57.81 Y117.48 E.03515
G1 X57.602 Y116.541 E.03016
G1 X57.528 Y115.702 E.02641
G1 X57.601 Y114.462 E.03895
G1 X57.9 Y113.242 E.03938
G1 X58.245 Y112.407 E.02833
G1 X58.775 Y111.511 E.03264
G1 X59.495 Y110.639 E.03546
G1 X60.435 Y109.831 E.03886
G1 X60.953 Y109.519 E.01896
G1 X60.953 Y109.519 F9000
G1 X61.146 Y109.84
G1 F1200
G1 X61.553 Y109.596 E.01488
G1 X62.423 Y109.236 E.02952
G1 X63.321 Y109.006 E.02907
G1 X64.336 Y108.904 E.03198
G1 X166.66 Y108.904 E3.2083
G1 X167.56 Y108.992 E.02835
G1 X168.692 Y109.275 E.03659
G1 X169.661 Y109.708 E.03328
G1 X170.499 Y110.252 E.03133
G1 X171.223 Y110.89 E.03026
G1 X171.887 Y111.685 E.03248
G1 X172.379 Y112.499 E.02982
G1 X172.74 Y113.355 E.02913
G1 X173.018 Y114.467 E.03594
G1 X173.099 Y115.538 E.03368
G1 X173.027 Y116.473 E.0294
G1 X172.824 Y117.388 E.02939
G1 X172.44 Y118.377 E.03326
G1 X171.902 Y119.291 E.03325
G1 X171.207 Y120.126 E.03406
G1 X170.44 Y120.793 E.03187
G1 X169.701 Y121.272 E.02761
G1 X168.708 Y121.719 E.03414
G1 X167.684 Y121.993 E.03324
G1 X166.664 Y122.096 E.03214
G1 X64.336 Y122.096 E3.20842
G1 X63.317 Y121.993 E.03211
G1 X62.292 Y121.719 E.03327
G1 X61.298 Y121.271 E.03419
G1 X60.567 Y120.798 E.0273
G1 X59.864 Y120.198 E.02898
G1 X59.136 Y119.345 E.03516
G1 X58.559 Y118.374 E.03541
G1 X58.175 Y117.384 E.03329
G1 X57.973 Y116.472 E.02929
G1 X57.904 Y115.679 E.02496
G1 X57.973 Y114.526 E.03622
G1 X58.252 Y113.376 E.0371
G1 X58.577 Y112.587 E.02676
G1 X59.092 Y111.716 E.03173
G1 X59.774 Y110.893 E.03351
G1 X60.668 Y110.128 E.03689
G1 X61.095 Y109.871 E.01563
G1 X61.288 Y110.192 F9000
G1 F1200
G1 X61.711 Y109.939 E.01545
G1 X62.529 Y109.598 E.02779
G1 X63.4 Y109.375 E.02819
G1 X64.364 Y109.281 E.03037
G1 X166.633 Y109.28 E3.20657
G1 X167.483 Y109.361 E.02677
G1 X168.555 Y109.626 E.03462
G1 X169.469 Y110.032 E.03136
G1 X170.261 Y110.545 E.02959
G1 X170.943 Y111.144 E.02846
G1 X171.572 Y111.894 E.03069
G1 X172.037 Y112.658 E.02804
G1 X172.389 Y113.492 E.02838
G1 X172.647 Y114.534 E.03366
G1 X172.722 Y115.539 E.0316
G1 X172.656 Y116.405 E.02723
G1 X172.459 Y117.292 E.02849
G1 X172.095 Y118.226 E.03143
G1 X171.586 Y119.086 E.03133
G1 X170.927 Y119.872 E.03216
G1 X170.203 Y120.499 E.03003
G1 X169.509 Y120.947 E.0259
G1 X168.568 Y121.368 E.03232
G1 X167.602 Y121.624 E.03133
G1 X166.636 Y121.719 E.03043
G1 X64.363 Y121.719 E3.2067
G1 X63.398 Y121.625 E.0304
G1 X62.431 Y121.368 E.03137
G1 X61.49 Y120.947 E.03232
G1 X60.801 Y120.503 E.0257
G1 X60.141 Y119.941 E.02718
G1 X59.451 Y119.138 E.0332
G1 X58.904 Y118.222 E.03345
G1 X58.54 Y117.288 E.03143
G1 X58.344 Y116.403 E.02842
G1 X58.281 Y115.657 E.02347
G1 X58.344 Y114.59 E.03351
G1 X58.605 Y113.51 E.03484
G1 X58.909 Y112.767 E.02517
G1 X59.409 Y111.921 E.03081
G1 X60.054 Y111.146 E.03161
G1 X60.9 Y110.425 E.03485
G1 X61.236 Y110.223 E.01229
G1 X61.236 Y110.223 F9000
G1 X61.429 Y110.545
G1 F1200
G1 X61.869 Y110.281 E.01609
G1 X62.636 Y109.96 E.02607
G1 X63.479 Y109.744 E.02729
G1 X64.391 Y109.657 E.02872
G1 X166.607 Y109.657 E3.20491
G1 X167.408 Y109.731 E.02522
G1 X168.418 Y109.978 E.0326
G1 X169.278 Y110.357 E.02947
G1 X170.024 Y110.838 E.02783
G1 X170.664 Y111.398 E.02666
G1 X171.257 Y112.102 E.02886
G1 X171.707 Y112.842 E.02716
G1 X172.037 Y113.628 E.02673
G1 X172.276 Y114.6 E.03138
G1 X172.345 Y115.54 E.02955
G1 X172.285 Y116.336 E.02503
G1 X172.094 Y117.196 E.02762
G1 X171.749 Y118.073 E.02955
G1 X171.27 Y118.88 E.02942
G1 X170.669 Y119.597 E.02933
G1 X169.967 Y120.205 E.02912
G1 X169.318 Y120.622 E.02419
G1 X168.429 Y121.017 E.0305
G1 X167.522 Y121.256 E.02941
G1 X166.61 Y121.343 E.02872
G1 X64.39 Y121.343 E3.20504
G1 X63.479 Y121.256 E.02869
G1 X62.57 Y121.017 E.02947
G1 X61.681 Y120.621 E.03051
G1 X61.036 Y120.207 E.02403
G1 X60.397 Y119.663 E.02631
G1 X59.748 Y118.905 E.03129
G1 X59.249 Y118.07 E.0305
G1 X58.905 Y117.192 E.02957
G1 X58.715 Y116.334 E.02755
G1 X58.658 Y115.636 E.02196
G1 X58.716 Y114.654 E.03084
G1 X58.958 Y113.643 E.03259
G1 X59.24 Y112.947 E.02355
G1 X59.726 Y112.126 E.02991
G1 X60.332 Y111.401 E.02963
G1 X61.132 Y110.723 E.03288
G1 X61.378 Y110.576 E.00899
G1 X61.378 Y110.576 F9000
G1 X61.57 Y110.897
G1 F1200
G1 X62.028 Y110.623 E.01673
G1 X62.744 Y110.321 E.02436
G1 X63.558 Y110.113 E.02634
G1 X64.417 Y110.033 E.02705
G1 X166.582 Y110.033 E3.20331
G1 X167.333 Y110.101 E.02364
G1 X168.282 Y110.33 E.03061
G1 X169.087 Y110.683 E.02756
G1 X169.787 Y111.132 E.02608
G1 X170.386 Y111.653 E.02489
G1 X170.944 Y112.311 E.02705
G1 X171.365 Y113.001 E.02534
G1 X171.685 Y113.764 E.02594
G1 X171.904 Y114.666 E.0291
G1 X171.968 Y115.541 E.02751
G1 X171.914 Y116.268 E.02286
G1 X171.729 Y117.099 E.02669
G1 X171.405 Y117.92 E.02767
G1 X170.954 Y118.673 E.02752
G1 X170.391 Y119.343 E.02744
G1 X169.731 Y119.91 E.02728
G1 X169.127 Y120.296 E.02247
G1 X168.291 Y120.666 E.02866
G1 X167.442 Y120.887 E.02751
G1 X166.583 Y120.967 E.02705
G1 X64.416 Y120.967 E3.20337
G1 X63.558 Y120.887 E.02702
G1 X62.709 Y120.666 E.02751
G1 X61.872 Y120.296 E.02869
G1 X61.27 Y119.912 E.02239
G1 X60.652 Y119.386 E.02545
G1 X60.063 Y118.697 E.02842
G1 X59.594 Y117.917 E.02854
G1 X59.27 Y117.096 E.02767
G1 X59.086 Y116.266 E.02666
G1 X59.034 Y115.615 E.02048
G1 X59.088 Y114.718 E.02818
G1 X59.311 Y113.775 E.03038
G1 X59.572 Y113.126 E.02193
G1 X60.042 Y112.332 E.02893
G1 X60.61 Y111.656 E.02768
G1 X61.363 Y111.021 E.03088
G1 X61.519 Y110.928 E.00569
G1 X61.519 Y110.928 F9000
G1 X61.692 Y111.27
G1 F1200
G1 X62.851 Y110.683 E.04073
G1 X63.637 Y110.482 E.02544
G1 X64.442 Y110.409 E.02534
G1 X166.557 Y110.409 E3.20174
G1 X167.26 Y110.471 E.02213
G1 X168.147 Y110.683 E.02859
