; generated by PrusaSlicer 2.7.4+win64 on 2024-10-05 at 15:42:54 UTC

; 

; external perimeters extrusion width = 0.42mm
; perimeters extrusion width = 0.44mm
; infill extrusion width = 0.44mm
; solid infill extrusion width = 0.44mm
; top infill extrusion width = 0.40mm
; first layer extrusion width = 0.42mm

M201 X500 Y500 Z100 E5000 ; sets maximum accelerations, mm/sec^2
M203 X500 Y500 Z10 E60 ; sets maximum feedrates, mm / sec
M204 S500 T1000 ; sets acceleration (S) and retract acceleration (R), mm/sec^2
M205 X8.00 Y8.00 Z0.40 E5.00 ; sets the jerk limits, mm/sec
M205 S0 T0 ; sets the minimum extruding and travel feed rate, mm/sec

; printing object wheel_front.stl id:0 copy 0
; stop printing object wheel_front.stl id:0 copy 0

;TYPE:Custom
G90 ; use absolute coordinates
M83 ; extruder relative mode
M104 S150 ; set temporary nozzle temp to prevent oozing during homing and auto bed leveling
M140 S60 ; set final bed temp
G4 S30 ; allow partial nozzle warmup
G28 ; home all axis
G29 ; auto bed levelling
G1 Z50 F240
G1 X2.0 Y10 F3000
M104 S210 ; set final nozzle temp
M190 S60 ; wait for bed temp to stabilize
M109 S210 ; wait for nozzle temp to stabilize
G1 Z0.28 F240
G92 E0
G1 X2.0 Y140 E10 F1500 ; prime the nozzle
G1 X2.3 Y140 F5000
G92 E0
G1 X2.3 Y10 E10 F1200 ; prime the nozzle
G92 E0
G21 ; set units to millimeters
G90 ; use absolute coordinates
M83 ; use relative distances for extrusion
; Filament gcode
M107
;LAYER_CHANGE
;Z:0.2
;HEIGHT:0.2
G1 E-5 F3600
G1 Z.2 F9000
G1 X93.434 Y93.334
G1 Z.2
G1 E5 F2400
M204 S500
;TYPE:Skirt/Brim
;WIDTH:0.42
G1 F1200
G1 X95.81 Y91.199 E.10016
G1 X98.298 Y89.379 E.09665
G1 X100.709 Y87.942 E.088
G1 X103.766 Y86.508 E.10587
G1 X106.546 Y85.532 E.09238
G1 X109.468 Y84.81 E.09437
G1 X112.556 Y84.362 E.09784
G1 X115.78 Y84.225 E.10118
G1 X118.576 Y84.375 E.08779
G1 X121.658 Y84.836 E.09771
G1 X124.594 Y85.575 E.09493
G1 X127.705 Y86.703 E.10376
G1 X130.391 Y87.996 E.09347
G1 X133.148 Y89.678 E.10126
G1 X135.392 Y91.365 E.08802
G1 X137.619 Y93.387 E.09431
G1 X139.727 Y95.718 E.09854
G1 X141.517 Y98.141 E.09445
G1 X143.133 Y100.848 E.09885
G1 X144.412 Y103.569 E.09427
G1 X145.393 Y106.299 E.09096
G1 X146.172 Y109.377 E.09955
G1 X146.626 Y112.431 E.09681
G1 X146.777 Y115.543 E.09769
G1 X146.626 Y118.569 E.095
G1 X146.168 Y121.643 E.09745
G1 X145.386 Y124.723 E.09964
G1 X144.401 Y127.456 E.09109
G1 X143.055 Y130.298 E.0986
G1 X141.494 Y132.894 E.09498
G1 X139.72 Y135.29 E.09348
G1 X137.582 Y137.65 E.09985
G1 X135.178 Y139.81 E.10133
G1 X132.577 Y141.703 E.10086
G1 X129.917 Y143.255 E.09656
G1 X127.174 Y144.516 E.09466
G1 X124.441 Y145.471 E.09077
G1 X121.289 Y146.236 E.1017
G1 X118.472 Y146.635 E.08921
G1 X115.414 Y146.776 E.09598
G1 X112.461 Y146.629 E.0927
G1 X109.421 Y146.18 E.09635
G1 X106.518 Y145.459 E.09379
G1 X103.708 Y144.469 E.09341
G1 X100.817 Y143.115 E.10009
G1 X98.353 Y141.658 E.08975
G1 X95.837 Y139.823 E.09764
G1 X93.389 Y137.621 E.10324
G1 X91.175 Y135.161 E.10377
G1 X89.483 Y132.859 E.08958
G1 X87.867 Y130.152 E.09885
G1 X86.589 Y127.433 E.0942
G1 X85.607 Y124.7 E.09106
G1 X84.825 Y121.605 E.10009
G1 X84.374 Y118.569 E.09624
G1 X84.223 Y115.457 E.09769
G1 X84.374 Y112.431 E.095
G1 X84.832 Y109.356 E.09748
G1 X85.614 Y106.277 E.0996
G1 X86.6 Y103.542 E.09116
G1 X87.87 Y100.844 E.0935
G1 X89.502 Y98.111 E.09981
G1 X91.483 Y95.465 E.10364
G1 X93.393 Y93.378 E.0887
G1 E-3.5 F3600
;WIPE_START
G1 F7200
G1 X93.434 Y93.334 E-.02857
G1 X95.738 Y91.264 E-1.47143
;WIPE_END
G1 X95.992 Y96.002 F9000
G1 E5 F2400
G1 F1200
G1 X97.044 Y94.96 E.04643
G1 X99.187 Y93.221 E.08653
G1 X101.355 Y91.785 E.08154
G1 X103.775 Y90.5 E.08591
G1 X106.277 Y89.473 E.0848
G1 X108.921 Y88.682 E.08653
G1 X111.727 Y88.147 E.08957
G1 X114.446 Y87.908 E.08558
G1 X116.828 Y87.919 E.07469
G1 X119.592 Y88.192 E.08708
G1 X122.421 Y88.768 E.09052
G1 X124.917 Y89.543 E.08195
G1 X127.346 Y90.557 E.08253
G1 X129.893 Y91.935 E.0908
G1 X132.092 Y93.428 E.08334
G1 X134.083 Y95.075 E.08102
G1 X135.986 Y96.985 E.08454
G1 X137.704 Y99.086 E.0851
G1 X139.139 Y101.228 E.08084
G1 X140.538 Y103.858 E.0934
G1 X141.527 Y106.277 E.08194
G1 X142.212 Y108.507 E.07314
G1 X142.772 Y111.18 E.08563
G1 X143.064 Y113.886 E.08534
G1 X143.064 Y117.119 E.10137
G1 X142.772 Y119.82 E.08518
G1 X142.212 Y122.493 E.08563
G1 X141.527 Y124.723 E.07314
G1 X140.414 Y127.406 E.09107
G1 X139.139 Y129.771 E.08424
G1 X137.746 Y131.858 E.07867
G1 X135.937 Y134.068 E.08955
G1 X133.946 Y136.049 E.08806
G1 X131.734 Y137.837 E.08918
G1 X129.399 Y139.36 E.08741
G1 X127.084 Y140.566 E.08184
G1 X124.489 Y141.609 E.08769
G1 X121.843 Y142.375 E.08637
G1 X119.554 Y142.814 E.07308
G1 X116.742 Y143.085 E.08858
G1 X113.955 Y143.07 E.08739
G1 X111.722 Y142.852 E.07035
G1 X108.892 Y142.31 E.09035
G1 X106.276 Y141.526 E.08563
G1 X103.797 Y140.511 E.08399
G1 X101.413 Y139.25 E.08456
G1 X99.205 Y137.792 E.08296
G1 X96.998 Y135.998 E.08918
G1 X95.102 Y134.111 E.08387
G1 X93.33 Y131.96 E.08738
G1 X91.799 Y129.667 E.08645
G1 X90.461 Y127.141 E.08963
G1 X89.473 Y124.723 E.0819
G1 X88.788 Y122.493 E.07314
G1 X88.228 Y119.82 E.08563
G1 X87.936 Y117.114 E.08534
G1 X87.936 Y113.881 E.10137
G1 X88.228 Y111.18 E.08518
G1 X88.788 Y108.507 E.08563
G1 X89.473 Y106.277 E.07314
G1 X90.586 Y103.593 E.0911
G1 X91.742 Y101.429 E.07693
G1 X93.536 Y98.765 E.1007
G1 X95.145 Y96.841 E.07864
G1 X95.95 Y96.044 E.03552
G1 X95.95 Y96.044 F9000
G1 X96.209 Y96.282
G1 F1200
G1 X96.307 Y96.176 E.00453
G1 X98.329 Y94.359 E.08524
G1 X100.5 Y92.767 E.08441
G1 X102.622 Y91.501 E.07748
G1 X105.259 Y90.263 E.09134
G1 X107.74 Y89.393 E.08243
G1 X110.286 Y88.768 E.0822
G1 X112.904 Y88.388 E.08295
G1 X115.715 Y88.266 E.08822
G1 X118.191 Y88.397 E.07774
G1 X120.868 Y88.798 E.08487
G1 X123.429 Y89.444 E.08281
G1 X126.11 Y90.415 E.0894
G1 X128.499 Y91.566 E.08315
G1 X130.874 Y93.018 E.08728
G1 X132.836 Y94.494 E.07698
G1 X134.781 Y96.263 E.08243
G1 X136.577 Y98.25 E.08398
G1 X138.177 Y100.415 E.08441
G1 X139.55 Y102.717 E.08404
G1 X140.662 Y105.076 E.08177
G1 X141.53 Y107.485 E.08029
G1 X142.213 Y110.187 E.08738
G1 X142.607 Y112.845 E.08425
G1 X142.736 Y115.574 E.08566
G1 X142.607 Y118.155 E.08103
G1 X142.213 Y120.812 E.08422
G1 X141.53 Y123.514 E.08738
G1 X140.654 Y125.944 E.08099
G1 X139.569 Y128.247 E.07982
G1 X138.121 Y130.668 E.08845
G1 X136.571 Y132.757 E.08156
G1 X134.679 Y134.838 E.08818
G1 X132.606 Y136.694 E.08724
G1 X130.371 Y138.318 E.08662
G1 X128.051 Y139.671 E.08421
G1 X125.676 Y140.763 E.08196
G1 X123.266 Y141.605 E.08004
G1 X120.578 Y142.258 E.08673
G1 X118.07 Y142.615 E.07943
G1 X115.384 Y142.735 E.0843
G1 X112.824 Y142.604 E.08037
G1 X110.162 Y142.208 E.08438
G1 X107.664 Y141.585 E.08072
G1 X105.225 Y140.723 E.08111
G1 X102.718 Y139.549 E.0868
G1 X100.562 Y138.274 E.07854
G1 X98.329 Y136.641 E.08674
G1 X96.225 Y134.743 E.08885
G1 X94.566 Y132.924 E.07719
G1 X92.854 Y130.632 E.0897
G1 X91.444 Y128.272 E.0862
G1 X90.338 Y125.924 E.08138
G1 X89.47 Y123.515 E.08029
G1 X88.787 Y120.812 E.08741
G1 X88.393 Y118.155 E.08422
G1 X88.264 Y115.426 E.08566
G1 X88.393 Y112.845 E.08103
G1 X88.787 Y110.188 E.08422
G1 X89.47 Y107.486 E.08738
G1 X90.346 Y105.056 E.08099
G1 X91.445 Y102.727 E.08075
G1 X92.848 Y100.378 E.08579
G1 X94.585 Y98.054 E.09097
G1 X96.169 Y96.327 E.07348
G1 X96.169 Y96.327 F9000
G1 X96.45 Y96.61
G1 F1200
G1 X97.549 Y95.521 E.04851
G1 X99.64 Y93.824 E.08444
G1 X101.734 Y92.437 E.07875
G1 X104.104 Y91.178 E.08414
G1 X106.52 Y90.187 E.08188
G1 X109.093 Y89.417 E.08421
G1 X111.841 Y88.892 E.08772
G1 X114.486 Y88.661 E.08325
G1 X116.781 Y88.672 E.07196
G1 X119.471 Y88.936 E.08475
G1 X122.243 Y89.501 E.0887
G1 X124.669 Y90.255 E.07965
G1 X127.013 Y91.234 E.07965
G1 X129.5 Y92.578 E.08864
G1 X131.638 Y94.03 E.08103
G1 X133.569 Y95.627 E.07857
G1 X135.421 Y97.484 E.08223
G1 X137.098 Y99.534 E.08304
G1 X138.487 Y101.609 E.07829
G1 X139.859 Y104.185 E.09151
G1 X140.82 Y106.539 E.07972
G1 X141.479 Y108.686 E.07042
G1 X142.025 Y111.285 E.08327
G1 X142.311 Y113.917 E.08301
G1 X142.31 Y117.086 E.09936
G1 X142.025 Y119.715 E.08291
G1 X141.479 Y122.314 E.08327
G1 X140.82 Y124.461 E.07042
G1 X139.729 Y127.091 E.08928
G1 X138.488 Y129.391 E.08194
G1 X137.145 Y131.403 E.07585
G1 X135.386 Y133.554 E.08712
G1 X133.449 Y135.481 E.08567
G1 X131.29 Y137.227 E.08706
G1 X129.012 Y138.713 E.08528
G1 X126.777 Y139.877 E.07901
G1 X124.234 Y140.899 E.08593
G1 X121.658 Y141.644 E.08408
G1 X119.454 Y142.066 E.07036
G1 X116.717 Y142.331 E.08622
G1 X113.986 Y142.316 E.08563
G1 X111.838 Y142.107 E.06767
G1 X109.082 Y141.581 E.08797
G1 X106.519 Y140.812 E.0839
G1 X104.117 Y139.828 E.08139
G1 X101.79 Y138.596 E.08256
G1 X99.658 Y137.189 E.08009
G1 X97.503 Y135.438 E.08706
G1 X95.665 Y133.609 E.0813
G1 X93.929 Y131.502 E.0856
G1 X92.441 Y129.272 E.08406
G1 X91.141 Y126.814 E.08718
G1 X90.18 Y124.461 E.07969
G1 X89.521 Y122.314 E.07042
G1 X88.975 Y119.715 E.08327
G1 X88.689 Y117.083 E.08301
G1 X88.69 Y113.914 E.09936
G1 X88.975 Y111.285 E.08291
G1 X89.521 Y108.686 E.08327
G1 X90.18 Y106.539 E.07042
G1 X91.271 Y103.908 E.0893
G1 X92.385 Y101.822 E.07415
G1 X94.144 Y99.211 E.09871
G1 X95.696 Y97.357 E.07581
G1 X96.407 Y96.652 E.03139
G1 X96.407 Y96.652 F9000
G1 X96.67 Y96.894
G1 F1200
G1 X96.832 Y96.717 E.00752
G1 X98.812 Y94.938 E.08346
G1 X100.909 Y93.401 E.08152
G1 X102.969 Y92.171 E.07523
G1 X105.535 Y90.964 E.08891
G1 X107.947 Y90.118 E.08014
G1 X110.419 Y89.51 E.07982
G1 X112.983 Y89.138 E.08123
G1 X115.703 Y89.02 E.08536
G1 X118.108 Y89.147 E.07551
G1 X120.709 Y89.536 E.08246
G1 X123.198 Y90.162 E.08047
G1 X125.826 Y91.114 E.08764
G1 X128.131 Y92.225 E.08023
G1 X130.456 Y93.646 E.08544
G1 X132.349 Y95.07 E.07427
G1 X134.241 Y96.79 E.08017
G1 X135.994 Y98.728 E.08194
G1 X137.545 Y100.827 E.08183
G1 X138.889 Y103.08 E.08226
G1 X139.968 Y105.371 E.0794
G1 X140.807 Y107.699 E.07759
G1 X141.472 Y110.329 E.08506
G1 X141.855 Y112.913 E.0819
G1 X141.982 Y115.561 E.08312
G1 X141.855 Y118.087 E.0793
G1 X141.472 Y120.671 E.0819
G1 X140.807 Y123.3 E.08503
G1 X139.961 Y125.646 E.07819
G1 X138.908 Y127.883 E.07752
G1 X137.499 Y130.242 E.08615
G1 X135.994 Y132.272 E.07923
G1 X134.155 Y134.296 E.08574
G1 X132.125 Y136.113 E.08542
G1 X129.951 Y137.692 E.08425
G1 X127.696 Y139.006 E.08183
G1 X125.386 Y140.067 E.0797
G1 X123.045 Y140.884 E.07774
G1 X120.429 Y141.519 E.0844
G1 X118.007 Y141.863 E.0767
G1 X115.397 Y141.981 E.08192
G1 X112.905 Y141.855 E.07823
G1 X110.317 Y141.47 E.08204
G1 X107.89 Y140.865 E.07843
G1 X105.519 Y140.029 E.07883
G1 X103.063 Y138.878 E.08504
G1 X100.984 Y137.649 E.07572
G1 X98.812 Y136.062 E.08434
G1 X96.765 Y134.216 E.08643
G1 X95.153 Y132.45 E.07497
G1 X93.487 Y130.221 E.08725
G1 X92.106 Y127.911 E.08438
G1 X91.032 Y125.629 E.07908
G1 X90.193 Y123.301 E.07759
G1 X89.528 Y120.671 E.08506
G1 X89.145 Y118.087 E.0819
G1 X89.018 Y115.439 E.08312
G1 X89.145 Y112.913 E.0793
G1 X89.528 Y110.329 E.0819
G1 X90.193 Y107.7 E.08503
G1 X91.039 Y105.354 E.07819
G1 X92.106 Y103.089 E.0785
G1 X93.468 Y100.807 E.08333
G1 X95.169 Y98.531 E.08909
G1 X96.63 Y96.938 E.06777
G1 X96.63 Y96.938 F9000
G1 X96.907 Y97.217
G1 F1200
G1 X98.046 Y96.088 E.05028
G1 X100.093 Y94.427 E.08265
G1 X102.114 Y93.089 E.076
G1 X104.434 Y91.857 E.08236
G1 X106.763 Y90.901 E.07894
G1 X109.273 Y90.149 E.08216
G1 X111.956 Y89.638 E.08564
G1 X114.526 Y89.414 E.08089
G1 X116.735 Y89.424 E.06926
G1 X119.36 Y89.682 E.0827
G1 X122.065 Y90.234 E.08656
G1 X124.421 Y90.967 E.07736
G1 X126.679 Y91.91 E.07672
G1 X129.115 Y93.227 E.08683
G1 X131.192 Y94.638 E.07873
G1 X133.055 Y96.179 E.07581
G1 X134.861 Y97.99 E.08019
G1 X136.491 Y99.982 E.0807
G1 X137.836 Y101.989 E.07575
G1 X139.179 Y104.513 E.08964
G1 X140.113 Y106.801 E.07749
G1 X140.747 Y108.865 E.0677
G1 X141.279 Y111.391 E.08094
G1 X141.557 Y113.949 E.08068
G1 X141.557 Y117.054 E.09736
G1 X141.279 Y119.609 E.08058
G1 X140.747 Y122.135 E.08094
G1 X140.113 Y124.199 E.0677
G1 X139.044 Y126.776 E.08748
G1 X137.837 Y129.01 E.07962
G1 X136.543 Y130.948 E.07306
G1 X134.834 Y133.04 E.0847
G1 X132.953 Y134.913 E.08323
G1 X130.847 Y136.617 E.08494
G1 X128.625 Y138.065 E.08316
G1 X126.469 Y139.188 E.07622
G1 X123.979 Y140.189 E.08414
G1 X121.473 Y140.912 E.08178
G1 X119.354 Y141.319 E.06765
G1 X116.692 Y141.578 E.08386
G1 X114.018 Y141.563 E.08384
G1 X111.953 Y141.362 E.06505
G1 X109.272 Y140.851 E.08557
G1 X106.762 Y140.098 E.08216
G1 X104.437 Y139.145 E.07879
G1 X102.167 Y137.943 E.08054
G1 X100.11 Y136.586 E.07727
G1 X98.016 Y134.885 E.08459
G1 X96.227 Y133.107 E.07908
G1 X94.528 Y131.044 E.0838
G1 X93.084 Y128.877 E.08165
G1 X91.82 Y126.487 E.08477
G1 X90.887 Y124.199 E.07747
G1 X90.253 Y122.135 E.0677
G1 X89.721 Y119.609 E.08094
G1 X89.443 Y117.051 E.08068
G1 X89.443 Y113.946 E.09736
G1 X89.721 Y111.391 E.08058
G1 X90.253 Y108.866 E.08091
G1 X90.887 Y106.801 E.06773
G1 X91.956 Y104.224 E.08748
G1 X93.029 Y102.215 E.07141
G1 X94.752 Y99.657 E.0967
G1 X96.246 Y97.873 E.07296
G1 X96.864 Y97.26 E.02729
G1 X96.864 Y97.26 F9000
G1 X97.131 Y97.505
G1 F1200
G1 X97.357 Y97.259 E.01047
G1 X99.294 Y95.518 E.08166
G1 X101.318 Y94.035 E.07867
G1 X103.316 Y92.84 E.073
G1 X105.812 Y91.666 E.08648
G1 X108.153 Y90.843 E.0778
G1 X110.552 Y90.253 E.07746
G1 X113.061 Y89.888 E.0795
G1 X115.691 Y89.774 E.08254
G1 X118.024 Y89.896 E.07325
G1 X120.55 Y90.273 E.08008
G1 X122.968 Y90.88 E.07817
G1 X125.542 Y91.813 E.08584
G1 X127.763 Y92.883 E.0773
G1 X130.039 Y94.274 E.08363
G1 X131.862 Y95.646 E.07154
G1 X133.7 Y97.316 E.07786
G1 X135.416 Y99.213 E.0802
G1 X136.913 Y101.239 E.07898
G1 X138.228 Y103.443 E.08047
G1 X139.274 Y105.666 E.07703
G1 X140.084 Y107.914 E.07492
G1 X140.732 Y110.471 E.08271
G1 X141.104 Y112.98 E.07953
G1 X141.228 Y115.549 E.08064
G1 X141.104 Y118.02 E.07757
G1 X140.732 Y120.529 E.07953
G1 X140.084 Y123.086 E.08271
G1 X139.268 Y125.348 E.0754
G1 X138.248 Y127.52 E.07524
G1 X136.877 Y129.816 E.08385
G1 X135.416 Y131.787 E.07693
G1 X133.629 Y133.755 E.08335
G1 X131.651 Y135.527 E.08327
G1 X129.532 Y137.065 E.0821
G1 X127.34 Y138.341 E.07953
G1 X125.096 Y139.371 E.07742
G1 X122.833 Y140.16 E.07514
G1 X120.28 Y140.78 E.08237
G1 X117.945 Y141.111 E.07394
G1 X115.41 Y141.227 E.07957
G1 X112.986 Y141.105 E.0761
G1 X110.471 Y140.732 E.07972
G1 X108.115 Y140.145 E.07613
G1 X105.812 Y139.334 E.07656
G1 X103.409 Y138.208 E.08321
G1 X101.406 Y137.024 E.07295
G1 X99.294 Y135.482 E.08199
G1 X97.304 Y133.688 E.08401
G1 X95.74 Y131.976 E.07271
G1 X94.119 Y129.81 E.08483
G1 X92.768 Y127.549 E.08258
G1 X91.726 Y125.334 E.07675
G1 X90.916 Y123.086 E.07492
G1 X90.268 Y120.529 E.08271
G1 X89.896 Y118.02 E.07953
G1 X89.772 Y115.451 E.08064
G1 X89.896 Y112.98 E.07757
G1 X90.268 Y110.471 E.07953
G1 X90.916 Y107.914 E.08271
G1 X91.732 Y105.652 E.0754
G1 X92.768 Y103.45 E.0763
G1 X94.088 Y101.236 E.08082
G1 X95.753 Y99.008 E.08721
G1 X97.091 Y97.549 E.06207
G1 X97.091 Y97.549 F9000
G1 X97.364 Y97.825
G1 F1200
G1 X98.543 Y96.656 E.05206
G1 X100.546 Y95.03 E.08089
G1 X102.493 Y93.74 E.07323
G1 X104.763 Y92.535 E.08058
G1 X107.005 Y91.615 E.07598
G1 X109.461 Y90.88 E.08038
G1 X112.07 Y90.383 E.08327
G1 X114.566 Y90.167 E.07855
G1 X116.689 Y90.177 E.06657
G1 X119.258 Y90.43 E.08094
G1 X121.887 Y90.967 E.08413
G1 X124.173 Y91.68 E.07508
G1 X126.346 Y92.587 E.07383
G1 X128.721 Y93.87 E.08464
G1 X130.738 Y95.241 E.07647
G1 X132.548 Y96.737 E.07363
G1 X134.302 Y98.496 E.07789
G1 X135.885 Y100.431 E.07839
G1 X137.185 Y102.369 E.07317
G1 X138.5 Y104.84 E.08776
G1 X139.405 Y107.063 E.07526
G1 X140.014 Y109.045 E.06501
G1 X140.532 Y111.497 E.07858
G1 X140.803 Y113.98 E.07832
G1 X140.803 Y117.021 E.09535
G1 X140.532 Y119.503 E.07828
G1 X140.014 Y121.955 E.07858
G1 X139.405 Y123.937 E.06501
G1 X138.359 Y126.46 E.08564
G1 X137.185 Y128.63 E.07736
G1 X135.941 Y130.493 E.07024
G1 X134.282 Y132.526 E.08227
G1 X132.457 Y134.345 E.08079
G1 X130.396 Y136.012 E.08311
G1 X128.237 Y137.418 E.08078
G1 X126.162 Y138.5 E.07337
G1 X123.724 Y139.48 E.08239
G1 X121.289 Y140.181 E.07945
G1 X119.254 Y140.571 E.06497
G1 X116.667 Y140.824 E.0815
G1 X114.049 Y140.809 E.08209
G1 X112.069 Y140.616 E.06238
G1 X109.461 Y140.12 E.08324
