; generated by PrusaSlicer 2.7.4+win64 on 2024-10-05 at 20:56:19 UTC

; 

; external perimeters extrusion width = 0.42mm
; perimeters extrusion width = 0.44mm
; infill extrusion width = 0.44mm
; solid infill extrusion width = 0.44mm
; top infill extrusion width = 0.40mm
; first layer extrusion width = 0.42mm

M201 X500 Y500 Z100 E5000 ; sets maximum accelerations, mm/sec^2
M203 X500 Y500 Z10 E60 ; sets maximum feedrates, mm / sec
M204 S500 T1000 ; sets acceleration (S) and retract acceleration (R), mm/sec^2
M205 X8.00 Y8.00 Z0.40 E5.00 ; sets the jerk limits, mm/sec
M205 S0 T0 ; sets the minimum extruding and travel feed rate, mm/sec

; printing object wheel_rear.stl id:0 copy 0
; stop printing object wheel_rear.stl id:0 copy 0

;TYPE:Custom
G90 ; use absolute coordinates
M83 ; extruder relative mode
M104 S150 ; set temporary nozzle temp to prevent oozing during homing and auto bed leveling
M140 S60 ; set final bed temp
G4 S30 ; allow partial nozzle warmup
G28 ; home all axis
G29 ; auto bed levelling
G1 Z50 F240
G1 X2.0 Y10 F3000
M104 S210 ; set final nozzle temp
M190 S60 ; wait for bed temp to stabilize
M109 S210 ; wait for nozzle temp to stabilize
G1 Z0.28 F240
G92 E0
G1 X2.0 Y140 E10 F1500 ; prime the nozzle
G1 X2.3 Y140 F5000
G92 E0
G1 X2.3 Y10 E10 F1200 ; prime the nozzle
G92 E0
G21 ; set units to millimeters
G90 ; use absolute coordinates
M83 ; use relative distances for extrusion
; Filament gcode
M107
;LAYER_CHANGE
;Z:0.2
;HEIGHT:0.2
G1 E-5 F3600
G1 Z.2 F9000
G1 X93.374 Y93.394
G1 Z.2
G1 E5 F2400
M204 S500
;TYPE:Skirt/Brim
;WIDTH:0.42
G1 F1200
G1 X95.673 Y91.311 E.09727
G1 X98.116 Y89.5 E.09535
G1 X100.833 Y87.876 E.09925
G1 X103.648 Y86.557 E.09747
G1 X106.403 Y85.576 E.09169
G1 X109.384 Y84.828 E.09636
G1 X112.532 Y84.365 E.09977
G1 X115.596 Y84.224 E.09617
G1 X118.819 Y84.401 E.10121
G1 X121.837 Y84.872 E.09577
G1 X124.668 Y85.598 E.09164
G1 X127.662 Y86.685 E.09987
G1 X130.419 Y88.012 E.09594
G1 X132.923 Y89.526 E.09175
G1 X135.336 Y91.319 E.09426
G1 X137.646 Y93.414 E.09778
G1 X139.739 Y95.734 E.09797
G1 X141.525 Y98.153 E.09428
G1 X143.163 Y100.907 E.10047
G1 X144.396 Y103.532 E.09093
G1 X145.445 Y106.472 E.09787
G1 X146.174 Y109.386 E.09418
G1 X146.64 Y112.584 E.10133
G1 X146.777 Y115.53 E.09247
G1 X146.598 Y118.842 E.104
G1 X146.178 Y121.594 E.08729
G1 X145.451 Y124.51 E.09423
G1 X144.396 Y127.469 E.0985
G1 X143.167 Y130.086 E.09065
G1 X141.517 Y132.86 E.1012
G1 X139.747 Y135.257 E.09343
G1 X137.623 Y137.61 E.09939
G1 X135.286 Y139.724 E.09881
G1 X132.891 Y141.497 E.09343
G1 X130.173 Y143.122 E.09929
G1 X127.343 Y144.448 E.09799
G1 X124.413 Y145.481 E.09741
G1 X121.346 Y146.226 E.09896
G1 X118.43 Y146.64 E.09235
G1 X115.424 Y146.777 E.09435
G1 X112.21 Y146.604 E.10092
G1 X109.149 Y146.126 E.09714
G1 X106.34 Y145.406 E.09092
G1 X103.331 Y144.313 E.10038
G1 X100.625 Y143.013 E.09413
G1 X98.068 Y141.469 E.09366
G1 X95.669 Y139.687 E.0937
G1 X93.353 Y137.585 E.09807
G1 X91.257 Y135.261 E.09813
G1 X89.475 Y132.849 E.09403
G1 X87.837 Y130.094 E.1005
G1 X86.604 Y127.469 E.09093
G1 X85.586 Y124.631 E.09453
G1 X84.826 Y121.615 E.09752
G1 X84.36 Y118.417 E.10133
G1 X84.223 Y115.472 E.09244
G1 X84.402 Y112.159 E.10403
G1 X84.823 Y109.403 E.08741
G1 X85.59 Y106.354 E.09858
G1 X86.604 Y103.532 E.09402
G1 X87.833 Y100.915 E.09065
G1 X89.488 Y98.134 E.10147
G1 X91.253 Y95.744 E.09316
G1 X93.334 Y93.439 E.09737
G1 E-3.5 F3600
;WIPE_START
G1 F7200
G1 X93.374 Y93.394 E-.0286
G1 X95.67 Y91.314 E-1.4714
;WIPE_END
G1 X95.945 Y96.052 F9000
G1 E5 F2400
G1 F1200
G1 X96.976 Y95.022 E.04569
G1 X98.996 Y93.362 E.08198
G1 X101.145 Y91.912 E.08128
G1 X103.497 Y90.633 E.08394
G1 X105.954 Y89.59 E.08369
G1 X108.49 Y88.792 E.08336
G1 X111.324 Y88.205 E.09074
G1 X114.036 Y87.926 E.08548
G1 X116.963 Y87.926 E.09177
G1 X119.718 Y88.212 E.08685
G1 X122.243 Y88.723 E.08077
G1 X124.883 Y89.531 E.08657
G1 X127.451 Y90.608 E.08731
G1 X129.715 Y91.827 E.08062
G1 X132.004 Y93.362 E.08641
G1 X134.052 Y95.048 E.08317
G1 X135.963 Y96.96 E.08476
G1 X137.675 Y99.046 E.08461
G1 X139.185 Y101.305 E.0852
G1 X140.504 Y103.784 E.08804
G1 X141.47 Y106.116 E.07914
G1 X142.306 Y108.873 E.09033
G1 X142.786 Y111.257 E.07625
G1 X143.083 Y114.223 E.09346
G1 X143.083 Y116.778 E.08011
G1 X142.806 Y119.609 E.08919
G1 X142.325 Y122.05 E.07801
G1 X141.48 Y124.856 E.09188
G1 X140.504 Y127.217 E.0801
G1 X139.234 Y129.614 E.08505
G1 X137.735 Y131.874 E.08503
G1 X135.991 Y134.01 E.08646
G1 X134.052 Y135.954 E.08609
G1 X132.001 Y137.641 E.08327
G1 X129.897 Y139.063 E.07962
G1 X127.453 Y140.392 E.08723
G1 X124.928 Y141.454 E.08589
G1 X122.508 Y142.21 E.07949
G1 X119.719 Y142.789 E.08931
G1 X116.971 Y143.075 E.08663
G1 X114.197 Y143.083 E.08698
G1 X111.492 Y142.821 E.08521
G1 X108.815 Y142.293 E.08555
G1 X106.419 Y141.577 E.07841
G1 X103.734 Y140.482 E.09092
G1 X101.334 Y139.203 E.08527
G1 X99.068 Y137.692 E.0854
G1 X96.962 Y135.966 E.08538
G1 X95.037 Y134.041 E.08536
G1 X93.331 Y131.963 E.0843
G1 X91.815 Y129.696 E.08551
G1 X90.496 Y127.217 E.08804
G1 X89.529 Y124.881 E.07927
G1 X88.695 Y122.132 E.09007
G1 X88.214 Y119.744 E.07638
G1 X87.917 Y116.778 E.09346
G1 X87.917 Y114.224 E.08008
G1 X88.194 Y111.392 E.08922
G1 X88.671 Y108.967 E.07749
G1 X89.522 Y106.138 E.09263
G1 X90.496 Y103.784 E.07988
G1 X91.787 Y101.352 E.08633
G1 X93.3 Y99.08 E.08559
G1 X95.037 Y96.96 E.08593
G1 X95.903 Y96.095 E.03838
G1 X95.903 Y96.095 F9000
G1 X96.162 Y96.329
G1 F1200
G1 X96.244 Y96.239 E.00382
G1 X98.211 Y94.456 E.08324
G1 X100.287 Y92.909 E.08118
G1 X102.48 Y91.579 E.08042
G1 X104.851 Y90.432 E.08258
G1 X107.261 Y89.541 E.08056
G1 X109.975 Y88.831 E.08796
G1 X112.682 Y88.411 E.08589
G1 X115.498 Y88.265 E.08841
G1 X118.358 Y88.415 E.0898
G1 X121 Y88.826 E.08383
G1 X123.458 Y89.453 E.07954
G1 X126.076 Y90.402 E.08731
G1 X128.451 Y91.541 E.08259
G1 X130.666 Y92.878 E.08112
G1 X132.804 Y94.468 E.08354
G1 X134.763 Y96.246 E.08295
G1 X136.584 Y98.259 E.08511
G1 X138.143 Y100.364 E.08213
G1 X139.58 Y102.775 E.088
G1 X140.665 Y105.084 E.07999
G1 X141.564 Y107.598 E.08371
G1 X142.204 Y110.142 E.08225
G1 X142.613 Y112.93 E.08835
G1 X142.736 Y115.492 E.08042
G1 X142.614 Y118.068 E.08086
G1 X142.225 Y120.753 E.08507
G1 X141.58 Y123.352 E.08396
G1 X140.672 Y125.901 E.08484
G1 X139.582 Y128.223 E.08043
G1 X138.193 Y130.561 E.08527
G1 X136.603 Y132.719 E.08405
G1 X134.783 Y134.735 E.08516
G1 X132.757 Y136.572 E.08575
G1 X130.713 Y138.092 E.07987
G1 X128.552 Y139.406 E.0793
G1 X126.081 Y140.597 E.08601
G1 X123.611 Y141.5 E.08246
G1 X121.048 Y142.166 E.08303
G1 X118.359 Y142.586 E.08533
G1 X115.594 Y142.736 E.08682
G1 X112.891 Y142.612 E.08484
G1 X110.225 Y142.221 E.08448
G1 X107.732 Y141.605 E.08052
G1 X105.206 Y140.716 E.08396
G1 X102.704 Y139.543 E.08664
G1 X100.393 Y138.163 E.0844
G1 X98.234 Y136.564 E.08424
G1 X96.244 Y134.762 E.08418
G1 X94.417 Y132.743 E.08538
G1 X92.858 Y130.639 E.08211
G1 X91.42 Y128.226 E.08807
G1 X90.331 Y125.909 E.08027
G1 X89.439 Y123.413 E.08311
G1 X88.796 Y120.859 E.08258
G1 X88.387 Y118.071 E.08835
G1 X88.264 Y115.51 E.08039
G1 X88.386 Y112.933 E.08089
G1 X88.775 Y110.248 E.08507
G1 X89.438 Y107.591 E.08586
G1 X90.328 Y105.1 E.08294
G1 X91.419 Y102.778 E.08044
G1 X92.824 Y100.415 E.0862
G1 X94.416 Y98.259 E.08403
G1 X96.122 Y96.374 E.07971
G1 X96.122 Y96.374 F9000
G1 X96.406 Y96.658
G1 F1200
G1 X97.482 Y95.581 E.04773
G1 X99.454 Y93.962 E.08
G1 X101.529 Y92.561 E.0785
G1 X103.817 Y91.316 E.08167
G1 X106.207 Y90.301 E.08141
G1 X108.672 Y89.524 E.08104
G1 X111.429 Y88.952 E.08828
G1 X114.066 Y88.68 E.08312
G1 X116.933 Y88.68 E.08989
G1 X119.611 Y88.958 E.08442
G1 X122.049 Y89.452 E.078
G1 X124.627 Y90.24 E.08452
G1 X127.133 Y91.291 E.0852
G1 X129.318 Y92.469 E.07783
G1 X131.546 Y93.961 E.08407
G1 X133.539 Y95.601 E.08093
G1 X135.41 Y97.473 E.08299
G1 X137.074 Y99.502 E.08228
G1 X138.543 Y101.701 E.08292
G1 X139.825 Y104.112 E.08562
G1 X140.76 Y106.371 E.07666
G1 X141.576 Y109.064 E.08823
G1 X142.041 Y111.38 E.07407
G1 X142.33 Y114.268 E.091
G1 X142.33 Y116.733 E.07729
G1 X142.058 Y119.508 E.08743
G1 X141.595 Y121.861 E.07519
G1 X140.767 Y124.611 E.09005
G1 X139.825 Y126.889 E.07729
G1 X138.59 Y129.221 E.08274
G1 X137.133 Y131.42 E.08271
G1 X135.437 Y133.498 E.0841
G1 X133.538 Y135.401 E.08429
G1 X131.543 Y137.042 E.08099
G1 X129.512 Y138.415 E.07687
G1 X127.135 Y139.709 E.08486
G1 X124.678 Y140.743 E.08358
G1 X122.326 Y141.478 E.07726
G1 X119.612 Y142.043 E.08692
G1 X116.94 Y142.321 E.08423
G1 X114.241 Y142.33 E.08463
G1 X111.602 Y142.075 E.08313
G1 X109.006 Y141.563 E.08296
G1 X106.676 Y140.869 E.07623
G1 X104.064 Y139.803 E.08846
G1 X101.729 Y138.56 E.08294
G1 X99.516 Y137.086 E.08337
G1 X97.461 Y135.401 E.08332
G1 X95.59 Y133.528 E.08301
G1 X93.931 Y131.507 E.08198
G1 X92.457 Y129.301 E.08319
G1 X91.175 Y126.889 E.08565
G1 X90.238 Y124.625 E.07683
G1 X89.425 Y121.941 E.08793
G1 X88.959 Y119.621 E.07419
G1 X88.67 Y116.733 E.091
G1 X88.67 Y114.268 E.07729
G1 X88.942 Y111.493 E.08743
G1 X89.401 Y109.156 E.07467
G1 X90.235 Y106.385 E.09073
G1 X91.175 Y104.113 E.07709
G1 X92.43 Y101.746 E.084
G1 X93.906 Y99.528 E.08353
G1 X95.59 Y97.473 E.0833
G1 X96.363 Y96.7 E.03428
G1 X96.363 Y96.7 F9000
G1 X96.627 Y96.939
G1 F1200
G1 X96.777 Y96.772 E.00704
G1 X98.696 Y95.033 E.0812
G1 X100.716 Y93.529 E.07896
G1 X102.832 Y92.245 E.0776
G1 X105.138 Y91.13 E.08031
G1 X107.48 Y90.263 E.0783
G1 X110.119 Y89.571 E.08554
G1 X112.751 Y89.162 E.08351
G1 X115.498 Y89.019 E.08625
G1 X118.289 Y89.166 E.08763
G1 X120.857 Y89.566 E.08149
G1 X123.229 Y90.172 E.07676
G1 X125.792 Y91.1 E.08547
G1 X128.1 Y92.209 E.08029
G1 X130.239 Y93.499 E.07832
G1 X132.318 Y95.045 E.08123
G1 X134.23 Y96.779 E.08093
G1 X136.006 Y98.744 E.08305
G1 X137.521 Y100.791 E.07985
G1 X138.918 Y103.137 E.08561
G1 X139.968 Y105.372 E.07742
G1 X140.845 Y107.826 E.08171
G1 X141.466 Y110.299 E.07995
G1 X141.864 Y113.012 E.08597
G1 X141.982 Y115.492 E.07785
G1 X141.864 Y117.987 E.07832
G1 X141.483 Y120.616 E.08329
G1 X140.857 Y123.135 E.08138
G1 X139.975 Y125.613 E.08247
G1 X138.919 Y127.862 E.0779
G1 X137.56 Y130.152 E.08349
G1 X136.018 Y132.242 E.08144
G1 X134.243 Y134.209 E.08307
G1 X132.272 Y135.995 E.0834
G1 X130.284 Y137.471 E.07763
G1 X128.199 Y138.739 E.07651
G1 X125.797 Y139.899 E.08364
G1 X123.378 Y140.783 E.08075
G1 X120.903 Y141.425 E.08017
G1 X118.289 Y141.835 E.08296
G1 X115.601 Y141.982 E.08441
G1 X112.954 Y141.86 E.08308
G1 X110.371 Y141.481 E.08186
G1 X107.955 Y140.885 E.07802
G1 X105.5 Y140.021 E.0816
G1 X103.066 Y138.882 E.08426
G1 X100.803 Y137.53 E.08265
G1 X98.712 Y135.981 E.08159
G1 X96.771 Y134.222 E.08213
G1 X94.995 Y132.258 E.08302
G1 X93.48 Y130.212 E.07982
G1 X92.082 Y127.864 E.08568
G1 X91.028 Y125.621 E.07771
G1 X90.163 Y123.203 E.08052
G1 X89.534 Y120.703 E.08083
G1 X89.136 Y117.989 E.08601
G1 X89.018 Y115.509 E.07785
G1 X89.136 Y113.015 E.07829
G1 X89.517 Y110.386 E.08329
G1 X90.163 Y107.8 E.08357
G1 X91.025 Y105.388 E.08031
G1 X92.081 Y103.139 E.0779
G1 X93.451 Y100.833 E.0841
G1 X94.994 Y98.744 E.08143
G1 X96.587 Y96.983 E.07445
G1 X96.587 Y96.983 F9000
G1 X96.866 Y97.263
G1 F1200
G1 X97.989 Y96.14 E.0498
G1 X99.912 Y94.561 E.07802
G1 X101.913 Y93.21 E.0757
G1 X104.145 Y91.995 E.07968
G1 X106.46 Y91.011 E.07887
G1 X108.854 Y90.256 E.07871
G1 X111.535 Y89.699 E.08586
G1 X114.096 Y89.433 E.08073
G1 X116.903 Y89.433 E.08801
G1 X119.504 Y89.705 E.082
G1 X121.855 Y90.181 E.07521
G1 X124.361 Y90.946 E.08215
G1 X126.814 Y91.975 E.08341
G1 X128.922 Y93.111 E.07508
G1 X131.088 Y94.561 E.08173
G1 X133.025 Y96.153 E.07861
G1 X134.857 Y97.986 E.08126
G1 X136.473 Y99.958 E.07994
G1 X137.9 Y102.095 E.08057
G1 X139.146 Y104.44 E.08326
G1 X140.047 Y106.618 E.0739
G1 X140.847 Y109.255 E.0864
G1 X141.297 Y111.502 E.07185
G1 X141.578 Y114.312 E.08855
G1 X141.578 Y116.689 E.07453
G1 X141.311 Y119.408 E.08566
G1 X140.865 Y121.672 E.07235
G1 X140.054 Y124.365 E.08818
G1 X139.146 Y126.561 E.07451
G1 X137.947 Y128.827 E.08038
G1 X136.531 Y130.965 E.0804
G1 X134.871 Y133 E.08234
G1 X133.025 Y134.849 E.08192
G1 X131.086 Y136.442 E.07868
G1 X129.127 Y137.766 E.07414
G1 X126.816 Y139.025 E.08251
G1 X124.429 Y140.031 E.08122
G1 X122.144 Y140.746 E.07507
G1 X119.505 Y141.296 E.08452
G1 X116.908 Y141.568 E.08187
G1 X114.285 Y141.577 E.08224
G1 X111.702 Y141.327 E.08137
G1 X109.196 Y140.833 E.08009
G1 X106.934 Y140.16 E.074
G1 X104.393 Y139.125 E.08603
G1 X102.123 Y137.918 E.08061
G1 X99.973 Y136.485 E.08101
G1 X97.975 Y134.848 E.08099
G1 X96.143 Y133.015 E.08126
G1 X94.532 Y131.051 E.07965
G1 X93.1 Y128.906 E.08087
G1 X91.854 Y126.561 E.08326
G1 X90.948 Y124.37 E.07434
G1 X90.154 Y121.75 E.08584
G1 X89.703 Y119.499 E.07198
G1 X89.422 Y116.689 E.08855
G1 X89.422 Y114.312 E.07453
G1 X89.689 Y111.594 E.08563
G1 X90.133 Y109.337 E.07212
G1 X90.948 Y106.631 E.08861
G1 X91.854 Y104.441 E.07431
G1 X93.073 Y102.14 E.08165
G1 X94.507 Y99.984 E.08119
G1 X96.143 Y97.986 E.08097
G1 X96.824 Y97.305 E.0302
G1 X96.824 Y97.305 F9000
G1 X97.092 Y97.547
G1 F1200
G1 X97.311 Y97.305 E.01023
G1 X99.175 Y95.616 E.07887
G1 X101.145 Y94.15 E.07699
G1 X103.193 Y92.908 E.0751
G1 X105.441 Y91.82 E.07831
G1 X107.699 Y90.984 E.07549
G1 X110.262 Y90.312 E.08308
G1 X112.82 Y89.913 E.08117
G1 X115.498 Y89.773 E.08408
G1 X118.219 Y89.917 E.08543
G1 X120.714 Y90.307 E.07918
G1 X123.009 Y90.893 E.07427
G1 X125.509 Y91.799 E.08337
G1 X127.75 Y92.877 E.07797
G1 X129.811 Y94.12 E.07546
G1 X131.832 Y95.622 E.07895
G1 X133.696 Y97.312 E.07889
G1 X135.428 Y99.228 E.08098
G1 X136.899 Y101.217 E.07757
G1 X138.256 Y103.498 E.08322
G1 X139.272 Y105.66 E.0749
G1 X140.126 Y108.054 E.0797
G1 X140.728 Y110.455 E.07761
G1 X141.114 Y113.095 E.08366
G1 X141.228 Y115.492 E.07524
G1 X141.114 Y117.905 E.07574
G1 X140.742 Y120.478 E.08151
G1 X140.135 Y122.917 E.07881
G1 X139.278 Y125.325 E.08014
G1 X138.257 Y127.502 E.07539
G1 X136.926 Y129.742 E.0817
G1 X135.434 Y131.766 E.07884
G1 X133.702 Y133.683 E.08101
G1 X131.787 Y135.417 E.081
G1 X129.856 Y136.851 E.07541
G1 X127.846 Y138.072 E.07374
G1 X125.513 Y139.2 E.08125
G1 X123.145 Y140.066 E.07906
G1 X120.759 Y140.685 E.07729
G1 X118.219 Y141.084 E.08062
G1 X115.607 Y141.228 E.08202
G1 X113.036 Y141.11 E.0807
G1 X110.517 Y140.741 E.07982
G1 X108.178 Y140.165 E.07553
G1 X105.793 Y139.327 E.07926
G1 X103.428 Y138.22 E.08187
G1 X101.214 Y136.897 E.08087
G1 X99.197 Y135.404 E.07868
G1 X97.304 Y133.689 E.08009
G1 X95.572 Y131.773 E.08098
G1 X94.102 Y129.785 E.07752
G1 X92.744 Y127.503 E.08326
G1 X91.725 Y125.333 E.07517
G1 X90.888 Y122.994 E.07789
G1 X90.272 Y120.546 E.07915
G1 X89.886 Y117.906 E.08366
G1 X89.772 Y115.509 E.07524
G1 X89.886 Y113.096 E.07574
G1 X90.258 Y110.523 E.08151
G1 X90.887 Y108.009 E.08125
G1 X91.722 Y105.676 E.07769
G1 X92.743 Y103.499 E.07539
G1 X94.074 Y101.258 E.08172
G1 X95.572 Y99.229 E.07908
G1 X97.052 Y97.592 E.06919
G1 X97.052 Y97.592 F9000
G1 X97.327 Y97.868
G1 F1200
G1 X98.501 Y96.693 E.05208
G1 X100.369 Y95.161 E.07575
G1 X102.297 Y93.859 E.07294
G1 X104.481 Y92.67 E.07797
G1 X106.713 Y91.721 E.07605
G1 X109.037 Y90.988 E.07641
G1 X111.642 Y90.445 E.08343
G1 X114.126 Y90.187 E.0783
G1 X116.873 Y90.187 E.08613
G1 X119.397 Y90.451 E.07957
G1 X121.662 Y90.91 E.07246
G1 X124.105 Y91.655 E.08008
G1 X126.495 Y92.659 E.08128
G1 X128.526 Y93.753 E.07233
G1 X130.631 Y95.161 E.0794
G1 X132.512 Y96.706 E.07632
G1 X134.304 Y98.499 E.07948
G1 X135.872 Y100.414 E.0776
G1 X137.258 Y102.49 E.07827
G1 X138.467 Y104.768 E.08086
G1 X139.337 Y106.873 E.07142
G1 X140.117 Y109.446 E.0843
G1 X140.553 Y111.624 E.06964
G1 X140.825 Y114.356 E.08608
G1 X140.825 Y116.645 E.07177
G1 X140.563 Y119.307 E.08387
G1 X140.133 Y121.492 E.06982
G1 X139.341 Y124.119 E.08603
G1 X138.467 Y126.233 E.07172
G1 X137.294 Y128.451 E.07867
G1 X135.929 Y130.511 E.07748
G1 X134.305 Y132.501 E.08054
G1 X132.512 Y134.296 E.07955
G1 X130.629 Y135.842 E.07639
G1 X128.742 Y137.118 E.07142
G1 X126.496 Y138.342 E.0802
G1 X124.179 Y139.319 E.07884
G1 X121.962 Y140.014 E.07285
G1 X119.398 Y140.55 E.08213
G1 X116.877 Y140.814 E.07948
G1 X114.329 Y140.824 E.07989
G1 X111.803 Y140.58 E.07957
G1 X109.385 Y140.103 E.07728
